a=1.2
v=0.25

movel(p[0.0, 0.0, 0.01, 0.0, 0.0, 0.0], a, v)
movel(p[0.0, 0.0, 0.01, 0.0, 0.0, 0.0], a, v)
grip
movel(p[0.0, 0.0, 0.01, 0.0, 0.0, 0.0], a, v)
movel(p[1.0, 1.5, 2.01, 3.14, 0.0, 0.0], a, v)
movel(p[1.0, 1.5, 2, 3.14, 0.0, 0.0], a, v)
release
movel(p[1.0, 1.5, 2.01, 3.14, 0.0, 0.0], a, v)

movel(p[0.0, 0.0, 0.02, 0.0, 0.0, 0.0], a, v)
movel(p[0.0, 0.0, 0.02, 0.0, 0.0, 0.0], a, v)
grip
movel(p[0.0, 0.0, 0.02, 0.0, 0.0, 0.0], a, v)
movel(p[1.0, 4.5, 2.01, 3.14, 0.0, 0.0], a, v)
movel(p[1.0, 4.5, 2, 3.14, 0.0, 0.0], a, v)
release
movel(p[1.0, 4.5, 2.01, 3.14, 0.0, 0.0], a, v)

movel(p[0.0, 0.0, 0.03, 0.0, 0.0, 0.0], a, v)
movel(p[0.0, 0.0, 0.03, 0.0, 0.0, 0.0], a, v)
grip
movel(p[0.0, 0.0, 0.03, 0.0, 0.0, 0.0], a, v)
movel(p[1.0, 7.5, 2.01, 3.14, 0.0, 0.0], a, v)
movel(p[1.0, 7.5, 2, 3.14, 0.0, 0.0], a, v)
release
movel(p[1.0, 7.5, 2.01, 3.14, 0.0, 0.0], a, v)

movel(p[0.0, 0.0, 0.04, 0.0, 0.0, 0.0], a, v)
movel(p[0.0, 0.0, 0.04, 0.0, 0.0, 0.0], a, v)
grip
movel(p[0.0, 0.0, 0.04, 0.0, 0.0, 0.0], a, v)
movel(p[3.0, 1.5, 2.01, 3.14, 0.0, 0.0], a, v)
movel(p[3.0, 1.5, 2, 3.14, 0.0, 0.0], a, v)
release
movel(p[3.0, 1.5, 2.01, 3.14, 0.0, 0.0], a, v)

movel(p[0.0, 0.0, 0.05, 0.0, 0.0, 0.0], a, v)
movel(p[0.0, 0.0, 0.05, 0.0, 0.0, 0.0], a, v)
grip
movel(p[0.0, 0.0, 0.05, 0.0, 0.0, 0.0], a, v)
movel(p[3.0, 4.5, 2.01, 3.14, 0.0, 0.0], a, v)
movel(p[3.0, 4.5, 2, 3.14, 0.0, 0.0], a, v)
release
movel(p[3.0, 4.5, 2.01, 3.14, 0.0, 0.0], a, v)

movel(p[0.0, 0.0, 0.060000000000000005, 0.0, 0.0, 0.0], a, v)
movel(p[0.0, 0.0, 0.060000000000000005, 0.0, 0.0, 0.0], a, v)
grip
movel(p[0.0, 0.0, 0.060000000000000005, 0.0, 0.0, 0.0], a, v)
movel(p[3.0, 7.5, 2.01, 3.14, 0.0, 0.0], a, v)
movel(p[3.0, 7.5, 2, 3.14, 0.0, 0.0], a, v)
release
movel(p[3.0, 7.5, 2.01, 3.14, 0.0, 0.0], a, v)

movel(p[0.0, 0.0, 0.07, 0.0, 0.0, 0.0], a, v)
movel(p[0.0, 0.0, 0.07, 0.0, 0.0, 0.0], a, v)
grip
movel(p[0.0, 0.0, 0.07, 0.0, 0.0, 0.0], a, v)
movel(p[5.0, 1.5, 2.01, 3.14, 0.0, 0.0], a, v)
movel(p[5.0, 1.5, 2, 3.14, 0.0, 0.0], a, v)
release
movel(p[5.0, 1.5, 2.01, 3.14, 0.0, 0.0], a, v)

movel(p[0.0, 0.0, 0.08, 0.0, 0.0, 0.0], a, v)
movel(p[0.0, 0.0, 0.08, 0.0, 0.0, 0.0], a, v)
grip
movel(p[0.0, 0.0, 0.08, 0.0, 0.0, 0.0], a, v)
movel(p[5.0, 4.5, 2.01, 3.14, 0.0, 0.0], a, v)
movel(p[5.0, 4.5, 2, 3.14, 0.0, 0.0], a, v)
release
movel(p[5.0, 4.5, 2.01, 3.14, 0.0, 0.0], a, v)

movel(p[0.0, 0.0, 0.09, 0.0, 0.0, 0.0], a, v)
movel(p[0.0, 0.0, 0.09, 0.0, 0.0, 0.0], a, v)
grip
movel(p[0.0, 0.0, 0.09, 0.0, 0.0, 0.0], a, v)
movel(p[5.0, 7.5, 2.01, 3.14, 0.0, 0.0], a, v)
movel(p[5.0, 7.5, 2, 3.14, 0.0, 0.0], a, v)
release
movel(p[5.0, 7.5, 2.01, 3.14, 0.0, 0.0], a, v)

movel(p[0.0, 0.0, 0.09999999999999999, 0.0, 0.0, 0.0], a, v)
movel(p[0.0, 0.0, 0.09999999999999999, 0.0, 0.0, 0.0], a, v)
grip
movel(p[0.0, 0.0, 0.09999999999999999, 0.0, 0.0, 0.0], a, v)
movel(p[7.0, 1.5, 2.01, 3.14, 0.0, 0.0], a, v)
movel(p[7.0, 1.5, 2, 3.14, 0.0, 0.0], a, v)
release
movel(p[7.0, 1.5, 2.01, 3.14, 0.0, 0.0], a, v)

movel(p[0.0, 0.0, 0.10999999999999999, 0.0, 0.0, 0.0], a, v)
movel(p[0.0, 0.0, 0.10999999999999999, 0.0, 0.0, 0.0], a, v)
grip
movel(p[0.0, 0.0, 0.10999999999999999, 0.0, 0.0, 0.0], a, v)
movel(p[7.0, 4.5, 2.01, 3.14, 0.0, 0.0], a, v)
movel(p[7.0, 4.5, 2, 3.14, 0.0, 0.0], a, v)
release
movel(p[7.0, 4.5, 2.01, 3.14, 0.0, 0.0], a, v)

movel(p[0.0, 0.0, 0.11999999999999998, 0.0, 0.0, 0.0], a, v)
movel(p[0.0, 0.0, 0.11999999999999998, 0.0, 0.0, 0.0], a, v)
grip
movel(p[0.0, 0.0, 0.11999999999999998, 0.0, 0.0, 0.0], a, v)
movel(p[7.0, 7.5, 2.01, 3.14, 0.0, 0.0], a, v)
movel(p[7.0, 7.5, 2, 3.14, 0.0, 0.0], a, v)
release
movel(p[7.0, 7.5, 2.01, 3.14, 0.0, 0.0], a, v)

movel(p[0.0, 0.0, 0.12999999999999998, 0.0, 0.0, 0.0], a, v)
movel(p[0.0, 0.0, 0.12999999999999998, 0.0, 0.0, 0.0], a, v)
grip
movel(p[0.0, 0.0, 0.12999999999999998, 0.0, 0.0, 0.0], a, v)
movel(p[9.0, 1.5, 2.01, 3.14, 0.0, 0.0], a, v)
movel(p[9.0, 1.5, 2, 3.14, 0.0, 0.0], a, v)
release
movel(p[9.0, 1.5, 2.01, 3.14, 0.0, 0.0], a, v)

movel(p[0.0, 0.0, 0.13999999999999999, 0.0, 0.0, 0.0], a, v)
movel(p[0.0, 0.0, 0.13999999999999999, 0.0, 0.0, 0.0], a, v)
grip
movel(p[0.0, 0.0, 0.13999999999999999, 0.0, 0.0, 0.0], a, v)
movel(p[9.0, 4.5, 2.01, 3.14, 0.0, 0.0], a, v)
movel(p[9.0, 4.5, 2, 3.14, 0.0, 0.0], a, v)
release
movel(p[9.0, 4.5, 2.01, 3.14, 0.0, 0.0], a, v)

movel(p[0.0, 0.0, 0.15, 0.0, 0.0, 0.0], a, v)
movel(p[0.0, 0.0, 0.15, 0.0, 0.0, 0.0], a, v)
grip
movel(p[0.0, 0.0, 0.15, 0.0, 0.0, 0.0], a, v)
movel(p[9.0, 7.5, 2.01, 3.14, 0.0, 0.0], a, v)
movel(p[9.0, 7.5, 2, 3.14, 0.0, 0.0], a, v)
release
movel(p[9.0, 7.5, 2.01, 3.14, 0.0, 0.0], a, v)

movel(p[0.0, 0.0, 0.16, 0.0, 0.0, 0.0], a, v)
movel(p[0.0, 0.0, 0.16, 0.0, 0.0, 0.0], a, v)
grip
movel(p[0.0, 0.0, 0.16, 0.0, 0.0, 0.0], a, v)
movel(p[11.0, 1.5, 2.01, 3.14, 0.0, 0.0], a, v)
movel(p[11.0, 1.5, 2, 3.14, 0.0, 0.0], a, v)
release
movel(p[11.0, 1.5, 2.01, 3.14, 0.0, 0.0], a, v)

movel(p[0.0, 0.0, 0.17, 0.0, 0.0, 0.0], a, v)
movel(p[0.0, 0.0, 0.17, 0.0, 0.0, 0.0], a, v)
grip
movel(p[0.0, 0.0, 0.17, 0.0, 0.0, 0.0], a, v)
movel(p[11.0, 4.5, 2.01, 3.14, 0.0, 0.0], a, v)
movel(p[11.0, 4.5, 2, 3.14, 0.0, 0.0], a, v)
release
movel(p[11.0, 4.5, 2.01, 3.14, 0.0, 0.0], a, v)

movel(p[0.0, 0.0, 0.18000000000000002, 0.0, 0.0, 0.0], a, v)
movel(p[0.0, 0.0, 0.18000000000000002, 0.0, 0.0, 0.0], a, v)
grip
movel(p[0.0, 0.0, 0.18000000000000002, 0.0, 0.0, 0.0], a, v)
movel(p[11.0, 7.5, 2.01, 3.14, 0.0, 0.0], a, v)
movel(p[11.0, 7.5, 2, 3.14, 0.0, 0.0], a, v)
release
movel(p[11.0, 7.5, 2.01, 3.14, 0.0, 0.0], a, v)

movel(p[0.0, 0.0, 0.19000000000000003, 0.0, 0.0, 0.0], a, v)
movel(p[0.0, 0.0, 0.19000000000000003, 0.0, 0.0, 0.0], a, v)
grip
movel(p[0.0, 0.0, 0.19000000000000003, 0.0, 0.0, 0.0], a, v)
movel(p[11.0, 7.5, 4.01, 3.14, 0.0, 0.0], a, v)
movel(p[11.0, 7.5, 4, 3.14, 0.0, 0.0], a, v)
release
movel(p[11.0, 7.5, 4.01, 3.14, 0.0, 0.0], a, v)

movel(p[0.0, 0.0, 0.20000000000000004, 0.0, 0.0, 0.0], a, v)
movel(p[0.0, 0.0, 0.20000000000000004, 0.0, 0.0, 0.0], a, v)
grip
movel(p[0.0, 0.0, 0.20000000000000004, 0.0, 0.0, 0.0], a, v)
movel(p[11.0, 4.5, 4.01, 3.14, 0.0, 0.0], a, v)
movel(p[11.0, 4.5, 4, 3.14, 0.0, 0.0], a, v)
release
movel(p[11.0, 4.5, 4.01, 3.14, 0.0, 0.0], a, v)

movel(p[0.0, 0.0, 0.21000000000000005, 0.0, 0.0, 0.0], a, v)
movel(p[0.0, 0.0, 0.21000000000000005, 0.0, 0.0, 0.0], a, v)
grip
movel(p[0.0, 0.0, 0.21000000000000005, 0.0, 0.0, 0.0], a, v)
movel(p[11.0, 1.5, 4.01, 3.14, 0.0, 0.0], a, v)
movel(p[11.0, 1.5, 4, 3.14, 0.0, 0.0], a, v)
release
movel(p[11.0, 1.5, 4.01, 3.14, 0.0, 0.0], a, v)

movel(p[0.0, 0.0, 0.22000000000000006, 0.0, 0.0, 0.0], a, v)
movel(p[0.0, 0.0, 0.22000000000000006, 0.0, 0.0, 0.0], a, v)
grip
movel(p[0.0, 0.0, 0.22000000000000006, 0.0, 0.0, 0.0], a, v)
movel(p[9.0, 7.5, 4.01, 3.14, 0.0, 0.0], a, v)
movel(p[9.0, 7.5, 4, 3.14, 0.0, 0.0], a, v)
release
movel(p[9.0, 7.5, 4.01, 3.14, 0.0, 0.0], a, v)

movel(p[0.0, 0.0, 0.23000000000000007, 0.0, 0.0, 0.0], a, v)
movel(p[0.0, 0.0, 0.23000000000000007, 0.0, 0.0, 0.0], a, v)
grip
movel(p[0.0, 0.0, 0.23000000000000007, 0.0, 0.0, 0.0], a, v)
movel(p[9.0, 4.5, 4.01, 3.14, 0.0, 0.0], a, v)
movel(p[9.0, 4.5, 4, 3.14, 0.0, 0.0], a, v)
release
movel(p[9.0, 4.5, 4.01, 3.14, 0.0, 0.0], a, v)

movel(p[0.0, 0.0, 0.24000000000000007, 0.0, 0.0, 0.0], a, v)
movel(p[0.0, 0.0, 0.24000000000000007, 0.0, 0.0, 0.0], a, v)
grip
movel(p[0.0, 0.0, 0.24000000000000007, 0.0, 0.0, 0.0], a, v)
movel(p[9.0, 1.5, 4.01, 3.14, 0.0, 0.0], a, v)
movel(p[9.0, 1.5, 4, 3.14, 0.0, 0.0], a, v)
release
movel(p[9.0, 1.5, 4.01, 3.14, 0.0, 0.0], a, v)

movel(p[0.0, 0.0, 0.25000000000000006, 0.0, 0.0, 0.0], a, v)
movel(p[0.0, 0.0, 0.25000000000000006, 0.0, 0.0, 0.0], a, v)
grip
movel(p[0.0, 0.0, 0.25000000000000006, 0.0, 0.0, 0.0], a, v)
movel(p[7.0, 7.5, 4.01, 3.14, 0.0, 0.0], a, v)
movel(p[7.0, 7.5, 4, 3.14, 0.0, 0.0], a, v)
release
movel(p[7.0, 7.5, 4.01, 3.14, 0.0, 0.0], a, v)

movel(p[0.0, 0.0, 0.26000000000000006, 0.0, 0.0, 0.0], a, v)
movel(p[0.0, 0.0, 0.26000000000000006, 0.0, 0.0, 0.0], a, v)
grip
movel(p[0.0, 0.0, 0.26000000000000006, 0.0, 0.0, 0.0], a, v)
movel(p[7.0, 4.5, 4.01, 3.14, 0.0, 0.0], a, v)
movel(p[7.0, 4.5, 4, 3.14, 0.0, 0.0], a, v)
release
movel(p[7.0, 4.5, 4.01, 3.14, 0.0, 0.0], a, v)

movel(p[0.0, 0.0, 0.2700000000000001, 0.0, 0.0, 0.0], a, v)
movel(p[0.0, 0.0, 0.2700000000000001, 0.0, 0.0, 0.0], a, v)
grip
movel(p[0.0, 0.0, 0.2700000000000001, 0.0, 0.0, 0.0], a, v)
movel(p[7.0, 1.5, 4.01, 3.14, 0.0, 0.0], a, v)
movel(p[7.0, 1.5, 4, 3.14, 0.0, 0.0], a, v)
release
movel(p[7.0, 1.5, 4.01, 3.14, 0.0, 0.0], a, v)

movel(p[0.0, 0.0, 0.2800000000000001, 0.0, 0.0, 0.0], a, v)
movel(p[0.0, 0.0, 0.2800000000000001, 0.0, 0.0, 0.0], a, v)
grip
movel(p[0.0, 0.0, 0.2800000000000001, 0.0, 0.0, 0.0], a, v)
movel(p[5.0, 7.5, 4.01, 3.14, 0.0, 0.0], a, v)
movel(p[5.0, 7.5, 4, 3.14, 0.0, 0.0], a, v)
release
movel(p[5.0, 7.5, 4.01, 3.14, 0.0, 0.0], a, v)

movel(p[0.0, 0.0, 0.2900000000000001, 0.0, 0.0, 0.0], a, v)
movel(p[0.0, 0.0, 0.2900000000000001, 0.0, 0.0, 0.0], a, v)
grip
movel(p[0.0, 0.0, 0.2900000000000001, 0.0, 0.0, 0.0], a, v)
movel(p[5.0, 4.5, 4.01, 3.14, 0.0, 0.0], a, v)
movel(p[5.0, 4.5, 4, 3.14, 0.0, 0.0], a, v)
release
movel(p[5.0, 4.5, 4.01, 3.14, 0.0, 0.0], a, v)

movel(p[0.0, 0.0, 0.3000000000000001, 0.0, 0.0, 0.0], a, v)
movel(p[0.0, 0.0, 0.3000000000000001, 0.0, 0.0, 0.0], a, v)
grip
movel(p[0.0, 0.0, 0.3000000000000001, 0.0, 0.0, 0.0], a, v)
movel(p[5.0, 1.5, 4.01, 3.14, 0.0, 0.0], a, v)
movel(p[5.0, 1.5, 4, 3.14, 0.0, 0.0], a, v)
release
movel(p[5.0, 1.5, 4.01, 3.14, 0.0, 0.0], a, v)

movel(p[0.0, 0.0, 0.3100000000000001, 0.0, 0.0, 0.0], a, v)
movel(p[0.0, 0.0, 0.3100000000000001, 0.0, 0.0, 0.0], a, v)
grip
movel(p[0.0, 0.0, 0.3100000000000001, 0.0, 0.0, 0.0], a, v)
movel(p[3.0, 7.5, 4.01, 3.14, 0.0, 0.0], a, v)
movel(p[3.0, 7.5, 4, 3.14, 0.0, 0.0], a, v)
release
movel(p[3.0, 7.5, 4.01, 3.14, 0.0, 0.0], a, v)

movel(p[0.0, 0.0, 0.3200000000000001, 0.0, 0.0, 0.0], a, v)
movel(p[0.0, 0.0, 0.3200000000000001, 0.0, 0.0, 0.0], a, v)
grip
movel(p[0.0, 0.0, 0.3200000000000001, 0.0, 0.0, 0.0], a, v)
movel(p[3.0, 4.5, 4.01, 3.14, 0.0, 0.0], a, v)
movel(p[3.0, 4.5, 4, 3.14, 0.0, 0.0], a, v)
release
movel(p[3.0, 4.5, 4.01, 3.14, 0.0, 0.0], a, v)

movel(p[0.0, 0.0, 0.3300000000000001, 0.0, 0.0, 0.0], a, v)
movel(p[0.0, 0.0, 0.3300000000000001, 0.0, 0.0, 0.0], a, v)
grip
movel(p[0.0, 0.0, 0.3300000000000001, 0.0, 0.0, 0.0], a, v)
movel(p[3.0, 1.5, 4.01, 3.14, 0.0, 0.0], a, v)
movel(p[3.0, 1.5, 4, 3.14, 0.0, 0.0], a, v)
release
movel(p[3.0, 1.5, 4.01, 3.14, 0.0, 0.0], a, v)

movel(p[0.0, 0.0, 0.34000000000000014, 0.0, 0.0, 0.0], a, v)
movel(p[0.0, 0.0, 0.34000000000000014, 0.0, 0.0, 0.0], a, v)
grip
movel(p[0.0, 0.0, 0.34000000000000014, 0.0, 0.0, 0.0], a, v)
movel(p[1.0, 7.5, 4.01, 3.14, 0.0, 0.0], a, v)
movel(p[1.0, 7.5, 4, 3.14, 0.0, 0.0], a, v)
release
movel(p[1.0, 7.5, 4.01, 3.14, 0.0, 0.0], a, v)

movel(p[0.0, 0.0, 0.35000000000000014, 0.0, 0.0, 0.0], a, v)
movel(p[0.0, 0.0, 0.35000000000000014, 0.0, 0.0, 0.0], a, v)
grip
movel(p[0.0, 0.0, 0.35000000000000014, 0.0, 0.0, 0.0], a, v)
movel(p[1.0, 4.5, 4.01, 3.14, 0.0, 0.0], a, v)
movel(p[1.0, 4.5, 4, 3.14, 0.0, 0.0], a, v)
release
movel(p[1.0, 4.5, 4.01, 3.14, 0.0, 0.0], a, v)

movel(p[0.0, 0.0, 0.36000000000000015, 0.0, 0.0, 0.0], a, v)
movel(p[0.0, 0.0, 0.36000000000000015, 0.0, 0.0, 0.0], a, v)
grip
movel(p[0.0, 0.0, 0.36000000000000015, 0.0, 0.0, 0.0], a, v)
movel(p[1.0, 1.5, 4.01, 3.14, 0.0, 0.0], a, v)
movel(p[1.0, 1.5, 4, 3.14, 0.0, 0.0], a, v)
release
movel(p[1.0, 1.5, 4.01, 3.14, 0.0, 0.0], a, v)

movel(p[0.0, 0.0, 0.37000000000000016, 0.0, 0.0, 0.0], a, v)
movel(p[0.0, 0.0, 0.37000000000000016, 0.0, 0.0, 0.0], a, v)
grip
movel(p[0.0, 0.0, 0.37000000000000016, 0.0, 0.0, 0.0], a, v)
movel(p[1.0, 1.5, 6.01, 3.14, 0.0, 0.0], a, v)
movel(p[1.0, 1.5, 6, 3.14, 0.0, 0.0], a, v)
release
movel(p[1.0, 1.5, 6.01, 3.14, 0.0, 0.0], a, v)

movel(p[0.0, 0.0, 0.38000000000000017, 0.0, 0.0, 0.0], a, v)
movel(p[0.0, 0.0, 0.38000000000000017, 0.0, 0.0, 0.0], a, v)
grip
movel(p[0.0, 0.0, 0.38000000000000017, 0.0, 0.0, 0.0], a, v)
movel(p[1.0, 4.5, 6.01, 3.14, 0.0, 0.0], a, v)
movel(p[1.0, 4.5, 6, 3.14, 0.0, 0.0], a, v)
release
movel(p[1.0, 4.5, 6.01, 3.14, 0.0, 0.0], a, v)

movel(p[0.0, 0.0, 0.3900000000000002, 0.0, 0.0, 0.0], a, v)
movel(p[0.0, 0.0, 0.3900000000000002, 0.0, 0.0, 0.0], a, v)
grip
movel(p[0.0, 0.0, 0.3900000000000002, 0.0, 0.0, 0.0], a, v)
movel(p[1.0, 7.5, 6.01, 3.14, 0.0, 0.0], a, v)
movel(p[1.0, 7.5, 6, 3.14, 0.0, 0.0], a, v)
release
movel(p[1.0, 7.5, 6.01, 3.14, 0.0, 0.0], a, v)

movel(p[0.0, 0.0, 0.4000000000000002, 0.0, 0.0, 0.0], a, v)
movel(p[0.0, 0.0, 0.4000000000000002, 0.0, 0.0, 0.0], a, v)
grip
movel(p[0.0, 0.0, 0.4000000000000002, 0.0, 0.0, 0.0], a, v)
movel(p[3.0, 1.5, 6.01, 3.14, 0.0, 0.0], a, v)
movel(p[3.0, 1.5, 6, 3.14, 0.0, 0.0], a, v)
release
movel(p[3.0, 1.5, 6.01, 3.14, 0.0, 0.0], a, v)

movel(p[0.0, 0.0, 0.4100000000000002, 0.0, 0.0, 0.0], a, v)
movel(p[0.0, 0.0, 0.4100000000000002, 0.0, 0.0, 0.0], a, v)
grip
movel(p[0.0, 0.0, 0.4100000000000002, 0.0, 0.0, 0.0], a, v)
movel(p[3.0, 4.5, 6.01, 3.14, 0.0, 0.0], a, v)
movel(p[3.0, 4.5, 6, 3.14, 0.0, 0.0], a, v)
release
movel(p[3.0, 4.5, 6.01, 3.14, 0.0, 0.0], a, v)

movel(p[0.0, 0.0, 0.4200000000000002, 0.0, 0.0, 0.0], a, v)
movel(p[0.0, 0.0, 0.4200000000000002, 0.0, 0.0, 0.0], a, v)
grip
movel(p[0.0, 0.0, 0.4200000000000002, 0.0, 0.0, 0.0], a, v)
movel(p[3.0, 7.5, 6.01, 3.14, 0.0, 0.0], a, v)
movel(p[3.0, 7.5, 6, 3.14, 0.0, 0.0], a, v)
release
movel(p[3.0, 7.5, 6.01, 3.14, 0.0, 0.0], a, v)

movel(p[0.0, 0.0, 0.4300000000000002, 0.0, 0.0, 0.0], a, v)
movel(p[0.0, 0.0, 0.4300000000000002, 0.0, 0.0, 0.0], a, v)
grip
movel(p[0.0, 0.0, 0.4300000000000002, 0.0, 0.0, 0.0], a, v)
movel(p[5.0, 1.5, 6.01, 3.14, 0.0, 0.0], a, v)
movel(p[5.0, 1.5, 6, 3.14, 0.0, 0.0], a, v)
release
movel(p[5.0, 1.5, 6.01, 3.14, 0.0, 0.0], a, v)

movel(p[0.0, 0.0, 0.4400000000000002, 0.0, 0.0, 0.0], a, v)
movel(p[0.0, 0.0, 0.4400000000000002, 0.0, 0.0, 0.0], a, v)
grip
movel(p[0.0, 0.0, 0.4400000000000002, 0.0, 0.0, 0.0], a, v)
movel(p[5.0, 4.5, 6.01, 3.14, 0.0, 0.0], a, v)
movel(p[5.0, 4.5, 6, 3.14, 0.0, 0.0], a, v)
release
movel(p[5.0, 4.5, 6.01, 3.14, 0.0, 0.0], a, v)

movel(p[0.0, 0.0, 0.45000000000000023, 0.0, 0.0, 0.0], a, v)
movel(p[0.0, 0.0, 0.45000000000000023, 0.0, 0.0, 0.0], a, v)
grip
movel(p[0.0, 0.0, 0.45000000000000023, 0.0, 0.0, 0.0], a, v)
movel(p[5.0, 7.5, 6.01, 3.14, 0.0, 0.0], a, v)
movel(p[5.0, 7.5, 6, 3.14, 0.0, 0.0], a, v)
release
movel(p[5.0, 7.5, 6.01, 3.14, 0.0, 0.0], a, v)

movel(p[0.0, 0.0, 0.46000000000000024, 0.0, 0.0, 0.0], a, v)
movel(p[0.0, 0.0, 0.46000000000000024, 0.0, 0.0, 0.0], a, v)
grip
movel(p[0.0, 0.0, 0.46000000000000024, 0.0, 0.0, 0.0], a, v)
movel(p[7.0, 1.5, 6.01, 3.14, 0.0, 0.0], a, v)
movel(p[7.0, 1.5, 6, 3.14, 0.0, 0.0], a, v)
release
movel(p[7.0, 1.5, 6.01, 3.14, 0.0, 0.0], a, v)

movel(p[0.0, 0.0, 0.47000000000000025, 0.0, 0.0, 0.0], a, v)
movel(p[0.0, 0.0, 0.47000000000000025, 0.0, 0.0, 0.0], a, v)
grip
movel(p[0.0, 0.0, 0.47000000000000025, 0.0, 0.0, 0.0], a, v)
movel(p[7.0, 4.5, 6.01, 3.14, 0.0, 0.0], a, v)
movel(p[7.0, 4.5, 6, 3.14, 0.0, 0.0], a, v)
release
movel(p[7.0, 4.5, 6.01, 3.14, 0.0, 0.0], a, v)

movel(p[0.0, 0.0, 0.48000000000000026, 0.0, 0.0, 0.0], a, v)
movel(p[0.0, 0.0, 0.48000000000000026, 0.0, 0.0, 0.0], a, v)
grip
movel(p[0.0, 0.0, 0.48000000000000026, 0.0, 0.0, 0.0], a, v)
movel(p[7.0, 7.5, 6.01, 3.14, 0.0, 0.0], a, v)
movel(p[7.0, 7.5, 6, 3.14, 0.0, 0.0], a, v)
release
movel(p[7.0, 7.5, 6.01, 3.14, 0.0, 0.0], a, v)

movel(p[0.0, 0.0, 0.49000000000000027, 0.0, 0.0, 0.0], a, v)
movel(p[0.0, 0.0, 0.49000000000000027, 0.0, 0.0, 0.0], a, v)
grip
movel(p[0.0, 0.0, 0.49000000000000027, 0.0, 0.0, 0.0], a, v)
movel(p[9.0, 1.5, 6.01, 3.14, 0.0, 0.0], a, v)
movel(p[9.0, 1.5, 6, 3.14, 0.0, 0.0], a, v)
release
movel(p[9.0, 1.5, 6.01, 3.14, 0.0, 0.0], a, v)

movel(p[0.0, 0.0, 0.5000000000000002, 0.0, 0.0, 0.0], a, v)
movel(p[0.0, 0.0, 0.5000000000000002, 0.0, 0.0, 0.0], a, v)
grip
movel(p[0.0, 0.0, 0.5000000000000002, 0.0, 0.0, 0.0], a, v)
movel(p[9.0, 4.5, 6.01, 3.14, 0.0, 0.0], a, v)
movel(p[9.0, 4.5, 6, 3.14, 0.0, 0.0], a, v)
release
movel(p[9.0, 4.5, 6.01, 3.14, 0.0, 0.0], a, v)

movel(p[0.0, 0.0, 0.5100000000000002, 0.0, 0.0, 0.0], a, v)
movel(p[0.0, 0.0, 0.5100000000000002, 0.0, 0.0, 0.0], a, v)
grip
movel(p[0.0, 0.0, 0.5100000000000002, 0.0, 0.0, 0.0], a, v)
movel(p[9.0, 7.5, 6.01, 3.14, 0.0, 0.0], a, v)
movel(p[9.0, 7.5, 6, 3.14, 0.0, 0.0], a, v)
release
movel(p[9.0, 7.5, 6.01, 3.14, 0.0, 0.0], a, v)

movel(p[0.0, 0.0, 0.5200000000000002, 0.0, 0.0, 0.0], a, v)
movel(p[0.0, 0.0, 0.5200000000000002, 0.0, 0.0, 0.0], a, v)
grip
movel(p[0.0, 0.0, 0.5200000000000002, 0.0, 0.0, 0.0], a, v)
movel(p[11.0, 1.5, 6.01, 3.14, 0.0, 0.0], a, v)
movel(p[11.0, 1.5, 6, 3.14, 0.0, 0.0], a, v)
release
movel(p[11.0, 1.5, 6.01, 3.14, 0.0, 0.0], a, v)

movel(p[0.0, 0.0, 0.5300000000000002, 0.0, 0.0, 0.0], a, v)
movel(p[0.0, 0.0, 0.5300000000000002, 0.0, 0.0, 0.0], a, v)
grip
movel(p[0.0, 0.0, 0.5300000000000002, 0.0, 0.0, 0.0], a, v)
movel(p[11.0, 4.5, 6.01, 3.14, 0.0, 0.0], a, v)
movel(p[11.0, 4.5, 6, 3.14, 0.0, 0.0], a, v)
release
movel(p[11.0, 4.5, 6.01, 3.14, 0.0, 0.0], a, v)

movel(p[0.0, 0.0, 0.5400000000000003, 0.0, 0.0, 0.0], a, v)
movel(p[0.0, 0.0, 0.5400000000000003, 0.0, 0.0, 0.0], a, v)
grip
movel(p[0.0, 0.0, 0.5400000000000003, 0.0, 0.0, 0.0], a, v)
movel(p[11.0, 7.5, 6.01, 3.14, 0.0, 0.0], a, v)
movel(p[11.0, 7.5, 6, 3.14, 0.0, 0.0], a, v)
release
movel(p[11.0, 7.5, 6.01, 3.14, 0.0, 0.0], a, v)

movel(p[0.0, 0.0, 0.5500000000000003, 0.0, 0.0, 0.0], a, v)
movel(p[0.0, 0.0, 0.5500000000000003, 0.0, 0.0, 0.0], a, v)
grip
movel(p[0.0, 0.0, 0.5500000000000003, 0.0, 0.0, 0.0], a, v)
movel(p[11.0, 7.5, 8.01, 3.14, 0.0, 0.0], a, v)
movel(p[11.0, 7.5, 8, 3.14, 0.0, 0.0], a, v)
release
movel(p[11.0, 7.5, 8.01, 3.14, 0.0, 0.0], a, v)

movel(p[0.0, 0.0, 0.5600000000000003, 0.0, 0.0, 0.0], a, v)
movel(p[0.0, 0.0, 0.5600000000000003, 0.0, 0.0, 0.0], a, v)
grip
movel(p[0.0, 0.0, 0.5600000000000003, 0.0, 0.0, 0.0], a, v)
movel(p[11.0, 4.5, 8.01, 3.14, 0.0, 0.0], a, v)
movel(p[11.0, 4.5, 8, 3.14, 0.0, 0.0], a, v)
release
movel(p[11.0, 4.5, 8.01, 3.14, 0.0, 0.0], a, v)

movel(p[0.0, 0.0, 0.5700000000000003, 0.0, 0.0, 0.0], a, v)
movel(p[0.0, 0.0, 0.5700000000000003, 0.0, 0.0, 0.0], a, v)
grip
movel(p[0.0, 0.0, 0.5700000000000003, 0.0, 0.0, 0.0], a, v)
movel(p[11.0, 1.5, 8.01, 3.14, 0.0, 0.0], a, v)
movel(p[11.0, 1.5, 8, 3.14, 0.0, 0.0], a, v)
release
movel(p[11.0, 1.5, 8.01, 3.14, 0.0, 0.0], a, v)

movel(p[0.0, 0.0, 0.5800000000000003, 0.0, 0.0, 0.0], a, v)
movel(p[0.0, 0.0, 0.5800000000000003, 0.0, 0.0, 0.0], a, v)
grip
movel(p[0.0, 0.0, 0.5800000000000003, 0.0, 0.0, 0.0], a, v)
movel(p[9.0, 7.5, 8.01, 3.14, 0.0, 0.0], a, v)
movel(p[9.0, 7.5, 8, 3.14, 0.0, 0.0], a, v)
release
movel(p[9.0, 7.5, 8.01, 3.14, 0.0, 0.0], a, v)

movel(p[0.0, 0.0, 0.5900000000000003, 0.0, 0.0, 0.0], a, v)
movel(p[0.0, 0.0, 0.5900000000000003, 0.0, 0.0, 0.0], a, v)
grip
movel(p[0.0, 0.0, 0.5900000000000003, 0.0, 0.0, 0.0], a, v)
movel(p[9.0, 4.5, 8.01, 3.14, 0.0, 0.0], a, v)
movel(p[9.0, 4.5, 8, 3.14, 0.0, 0.0], a, v)
release
movel(p[9.0, 4.5, 8.01, 3.14, 0.0, 0.0], a, v)

movel(p[0.0, 0.0, 0.6000000000000003, 0.0, 0.0, 0.0], a, v)
movel(p[0.0, 0.0, 0.6000000000000003, 0.0, 0.0, 0.0], a, v)
grip
movel(p[0.0, 0.0, 0.6000000000000003, 0.0, 0.0, 0.0], a, v)
movel(p[9.0, 1.5, 8.01, 3.14, 0.0, 0.0], a, v)
movel(p[9.0, 1.5, 8, 3.14, 0.0, 0.0], a, v)
release
movel(p[9.0, 1.5, 8.01, 3.14, 0.0, 0.0], a, v)

movel(p[0.0, 0.0, 0.6100000000000003, 0.0, 0.0, 0.0], a, v)
movel(p[0.0, 0.0, 0.6100000000000003, 0.0, 0.0, 0.0], a, v)
grip
movel(p[0.0, 0.0, 0.6100000000000003, 0.0, 0.0, 0.0], a, v)
movel(p[7.0, 7.5, 8.01, 3.14, 0.0, 0.0], a, v)
movel(p[7.0, 7.5, 8, 3.14, 0.0, 0.0], a, v)
release
movel(p[7.0, 7.5, 8.01, 3.14, 0.0, 0.0], a, v)

movel(p[0.0, 0.0, 0.6200000000000003, 0.0, 0.0, 0.0], a, v)
movel(p[0.0, 0.0, 0.6200000000000003, 0.0, 0.0, 0.0], a, v)
grip
movel(p[0.0, 0.0, 0.6200000000000003, 0.0, 0.0, 0.0], a, v)
movel(p[7.0, 4.5, 8.01, 3.14, 0.0, 0.0], a, v)
movel(p[7.0, 4.5, 8, 3.14, 0.0, 0.0], a, v)
release
movel(p[7.0, 4.5, 8.01, 3.14, 0.0, 0.0], a, v)

movel(p[0.0, 0.0, 0.6300000000000003, 0.0, 0.0, 0.0], a, v)
movel(p[0.0, 0.0, 0.6300000000000003, 0.0, 0.0, 0.0], a, v)
grip
movel(p[0.0, 0.0, 0.6300000000000003, 0.0, 0.0, 0.0], a, v)
movel(p[7.0, 1.5, 8.01, 3.14, 0.0, 0.0], a, v)
movel(p[7.0, 1.5, 8, 3.14, 0.0, 0.0], a, v)
release
movel(p[7.0, 1.5, 8.01, 3.14, 0.0, 0.0], a, v)

movel(p[0.0, 0.0, 0.6400000000000003, 0.0, 0.0, 0.0], a, v)
movel(p[0.0, 0.0, 0.6400000000000003, 0.0, 0.0, 0.0], a, v)
grip
movel(p[0.0, 0.0, 0.6400000000000003, 0.0, 0.0, 0.0], a, v)
movel(p[5.0, 7.5, 8.01, 3.14, 0.0, 0.0], a, v)
movel(p[5.0, 7.5, 8, 3.14, 0.0, 0.0], a, v)
release
movel(p[5.0, 7.5, 8.01, 3.14, 0.0, 0.0], a, v)

movel(p[0.0, 0.0, 0.6500000000000004, 0.0, 0.0, 0.0], a, v)
movel(p[0.0, 0.0, 0.6500000000000004, 0.0, 0.0, 0.0], a, v)
grip
movel(p[0.0, 0.0, 0.6500000000000004, 0.0, 0.0, 0.0], a, v)
movel(p[5.0, 4.5, 8.01, 3.14, 0.0, 0.0], a, v)
movel(p[5.0, 4.5, 8, 3.14, 0.0, 0.0], a, v)
release
movel(p[5.0, 4.5, 8.01, 3.14, 0.0, 0.0], a, v)

movel(p[0.0, 0.0, 0.6600000000000004, 0.0, 0.0, 0.0], a, v)
movel(p[0.0, 0.0, 0.6600000000000004, 0.0, 0.0, 0.0], a, v)
grip
movel(p[0.0, 0.0, 0.6600000000000004, 0.0, 0.0, 0.0], a, v)
movel(p[5.0, 1.5, 8.01, 3.14, 0.0, 0.0], a, v)
movel(p[5.0, 1.5, 8, 3.14, 0.0, 0.0], a, v)
release
movel(p[5.0, 1.5, 8.01, 3.14, 0.0, 0.0], a, v)

movel(p[0.0, 0.0, 0.6700000000000004, 0.0, 0.0, 0.0], a, v)
movel(p[0.0, 0.0, 0.6700000000000004, 0.0, 0.0, 0.0], a, v)
grip
movel(p[0.0, 0.0, 0.6700000000000004, 0.0, 0.0, 0.0], a, v)
movel(p[3.0, 7.5, 8.01, 3.14, 0.0, 0.0], a, v)
movel(p[3.0, 7.5, 8, 3.14, 0.0, 0.0], a, v)
release
movel(p[3.0, 7.5, 8.01, 3.14, 0.0, 0.0], a, v)

movel(p[0.0, 0.0, 0.6800000000000004, 0.0, 0.0, 0.0], a, v)
movel(p[0.0, 0.0, 0.6800000000000004, 0.0, 0.0, 0.0], a, v)
grip
movel(p[0.0, 0.0, 0.6800000000000004, 0.0, 0.0, 0.0], a, v)
movel(p[3.0, 4.5, 8.01, 3.14, 0.0, 0.0], a, v)
movel(p[3.0, 4.5, 8, 3.14, 0.0, 0.0], a, v)
release
movel(p[3.0, 4.5, 8.01, 3.14, 0.0, 0.0], a, v)

movel(p[0.0, 0.0, 0.6900000000000004, 0.0, 0.0, 0.0], a, v)
movel(p[0.0, 0.0, 0.6900000000000004, 0.0, 0.0, 0.0], a, v)
grip
movel(p[0.0, 0.0, 0.6900000000000004, 0.0, 0.0, 0.0], a, v)
movel(p[3.0, 1.5, 8.01, 3.14, 0.0, 0.0], a, v)
movel(p[3.0, 1.5, 8, 3.14, 0.0, 0.0], a, v)
release
movel(p[3.0, 1.5, 8.01, 3.14, 0.0, 0.0], a, v)

movel(p[0.0, 0.0, 0.7000000000000004, 0.0, 0.0, 0.0], a, v)
movel(p[0.0, 0.0, 0.7000000000000004, 0.0, 0.0, 0.0], a, v)
grip
movel(p[0.0, 0.0, 0.7000000000000004, 0.0, 0.0, 0.0], a, v)
movel(p[1.0, 7.5, 8.01, 3.14, 0.0, 0.0], a, v)
movel(p[1.0, 7.5, 8, 3.14, 0.0, 0.0], a, v)
release
movel(p[1.0, 7.5, 8.01, 3.14, 0.0, 0.0], a, v)

movel(p[0.0, 0.0, 0.7100000000000004, 0.0, 0.0, 0.0], a, v)
movel(p[0.0, 0.0, 0.7100000000000004, 0.0, 0.0, 0.0], a, v)
grip
movel(p[0.0, 0.0, 0.7100000000000004, 0.0, 0.0, 0.0], a, v)
movel(p[1.0, 4.5, 8.01, 3.14, 0.0, 0.0], a, v)
movel(p[1.0, 4.5, 8, 3.14, 0.0, 0.0], a, v)
release
movel(p[1.0, 4.5, 8.01, 3.14, 0.0, 0.0], a, v)

movel(p[0.0, 0.0, 0.7200000000000004, 0.0, 0.0, 0.0], a, v)
movel(p[0.0, 0.0, 0.7200000000000004, 0.0, 0.0, 0.0], a, v)
grip
movel(p[0.0, 0.0, 0.7200000000000004, 0.0, 0.0, 0.0], a, v)
movel(p[1.0, 1.5, 8.01, 3.14, 0.0, 0.0], a, v)
movel(p[1.0, 1.5, 8, 3.14, 0.0, 0.0], a, v)
release
movel(p[1.0, 1.5, 8.01, 3.14, 0.0, 0.0], a, v)

