a=1.2
v=0.25

movel(p[0.0, 0.0, 0.01, 1.0, 3.0, 2.0], a, v)
movel(p[0.0, 0.0, 0.0, 1.0, 3.0, 2.0], a, v)
grip
movel(p[0.0, 0.0, 0.01, 1.0, 3.0, 2.0], a, v)
movel(pose_trans(p[1.0, 1.5, 2.01, 1.0, 3.0, 2.0], p[0.0, 0.0, 0.0, 0.0, 0.0, d2r(270)]), a , v)
movel(pose_trans(p[1.0, 1.5, 2, 1.0, 3.0, 2.0], p[0.0, 0.0, 0.0, 0.0, 0.0, d2r(270)]), a , v)
release
movel(pose_trans(p[1.0, 1.5, 2.01, 1.0, 3.0, 2.0], p[0.0, 0.0, 0.0, 0.0, 0.0, d2r(270)]), a , v)

movel(p[0.0, 0.0, 0.01, 1.0, 3.0, 2.0], a, v)
movel(p[0.0, 0.0, 0.0, 1.0, 3.0, 2.0], a, v)
grip
movel(p[0.0, 0.0, 0.01, 1.0, 3.0, 2.0], a, v)
movel(pose_trans(p[1.0, 4.5, 2.01, 1.0, 3.0, 2.0], p[0.0, 0.0, 0.0, 0.0, 0.0, d2r(90)]), a , v)
movel(pose_trans(p[1.0, 4.5, 2, 1.0, 3.0, 2.0], p[0.0, 0.0, 0.0, 0.0, 0.0, d2r(90)]), a , v)
release
movel(pose_trans(p[1.0, 4.5, 2.01, 1.0, 3.0, 2.0], p[0.0, 0.0, 0.0, 0.0, 0.0, d2r(90)]), a , v)

movel(p[0.0, 0.0, 0.01, 1.0, 3.0, 2.0], a, v)
movel(p[0.0, 0.0, 0.0, 1.0, 3.0, 2.0], a, v)
grip
movel(p[0.0, 0.0, 0.01, 1.0, 3.0, 2.0], a, v)
movel(pose_trans(p[1.0, 7.5, 2.01, 1.0, 3.0, 2.0], p[0.0, 0.0, 0.0, 0.0, 0.0, d2r(90)]), a , v)
movel(pose_trans(p[1.0, 7.5, 2, 1.0, 3.0, 2.0], p[0.0, 0.0, 0.0, 0.0, 0.0, d2r(90)]), a , v)
release
movel(pose_trans(p[1.0, 7.5, 2.01, 1.0, 3.0, 2.0], p[0.0, 0.0, 0.0, 0.0, 0.0, d2r(90)]), a , v)

movel(p[0.0, 0.0, 0.01, 1.0, 3.0, 2.0], a, v)
movel(p[0.0, 0.0, 0.0, 1.0, 3.0, 2.0], a, v)
grip
movel(p[0.0, 0.0, 0.01, 1.0, 3.0, 2.0], a, v)
movel(pose_trans(p[3.0, 1.5, 2.01, 1.0, 3.0, 2.0], p[0.0, 0.0, 0.0, 0.0, 0.0, d2r(270)]), a , v)
movel(pose_trans(p[3.0, 1.5, 2, 1.0, 3.0, 2.0], p[0.0, 0.0, 0.0, 0.0, 0.0, d2r(270)]), a , v)
release
movel(pose_trans(p[3.0, 1.5, 2.01, 1.0, 3.0, 2.0], p[0.0, 0.0, 0.0, 0.0, 0.0, d2r(270)]), a , v)

movel(p[0.0, 0.0, 0.01, 1.0, 3.0, 2.0], a, v)
movel(p[0.0, 0.0, 0.0, 1.0, 3.0, 2.0], a, v)
grip
movel(p[0.0, 0.0, 0.01, 1.0, 3.0, 2.0], a, v)
movel(pose_trans(p[3.0, 4.5, 2.01, 1.0, 3.0, 2.0], p[0.0, 0.0, 0.0, 0.0, 0.0, d2r(90)]), a , v)
movel(pose_trans(p[3.0, 4.5, 2, 1.0, 3.0, 2.0], p[0.0, 0.0, 0.0, 0.0, 0.0, d2r(90)]), a , v)
release
movel(pose_trans(p[3.0, 4.5, 2.01, 1.0, 3.0, 2.0], p[0.0, 0.0, 0.0, 0.0, 0.0, d2r(90)]), a , v)

movel(p[0.0, 0.0, 0.01, 1.0, 3.0, 2.0], a, v)
movel(p[0.0, 0.0, 0.0, 1.0, 3.0, 2.0], a, v)
grip
movel(p[0.0, 0.0, 0.01, 1.0, 3.0, 2.0], a, v)
movel(pose_trans(p[3.0, 7.5, 2.01, 1.0, 3.0, 2.0], p[0.0, 0.0, 0.0, 0.0, 0.0, d2r(90)]), a , v)
movel(pose_trans(p[3.0, 7.5, 2, 1.0, 3.0, 2.0], p[0.0, 0.0, 0.0, 0.0, 0.0, d2r(90)]), a , v)
release
movel(pose_trans(p[3.0, 7.5, 2.01, 1.0, 3.0, 2.0], p[0.0, 0.0, 0.0, 0.0, 0.0, d2r(90)]), a , v)

movel(p[0.0, 0.0, 0.01, 1.0, 3.0, 2.0], a, v)
movel(p[0.0, 0.0, 0.0, 1.0, 3.0, 2.0], a, v)
grip
movel(p[0.0, 0.0, 0.01, 1.0, 3.0, 2.0], a, v)
movel(pose_trans(p[5.0, 1.5, 2.01, 1.0, 3.0, 2.0], p[0.0, 0.0, 0.0, 0.0, 0.0, d2r(270)]), a , v)
movel(pose_trans(p[5.0, 1.5, 2, 1.0, 3.0, 2.0], p[0.0, 0.0, 0.0, 0.0, 0.0, d2r(270)]), a , v)
release
movel(pose_trans(p[5.0, 1.5, 2.01, 1.0, 3.0, 2.0], p[0.0, 0.0, 0.0, 0.0, 0.0, d2r(270)]), a , v)

movel(p[0.0, 0.0, 0.01, 1.0, 3.0, 2.0], a, v)
movel(p[0.0, 0.0, 0.0, 1.0, 3.0, 2.0], a, v)
grip
movel(p[0.0, 0.0, 0.01, 1.0, 3.0, 2.0], a, v)
movel(pose_trans(p[5.0, 4.5, 2.01, 1.0, 3.0, 2.0], p[0.0, 0.0, 0.0, 0.0, 0.0, d2r(90)]), a , v)
movel(pose_trans(p[5.0, 4.5, 2, 1.0, 3.0, 2.0], p[0.0, 0.0, 0.0, 0.0, 0.0, d2r(90)]), a , v)
release
movel(pose_trans(p[5.0, 4.5, 2.01, 1.0, 3.0, 2.0], p[0.0, 0.0, 0.0, 0.0, 0.0, d2r(90)]), a , v)

movel(p[0.0, 0.0, 0.01, 1.0, 3.0, 2.0], a, v)
movel(p[0.0, 0.0, 0.0, 1.0, 3.0, 2.0], a, v)
grip
movel(p[0.0, 0.0, 0.01, 1.0, 3.0, 2.0], a, v)
movel(pose_trans(p[5.0, 7.5, 2.01, 1.0, 3.0, 2.0], p[0.0, 0.0, 0.0, 0.0, 0.0, d2r(90)]), a , v)
movel(pose_trans(p[5.0, 7.5, 2, 1.0, 3.0, 2.0], p[0.0, 0.0, 0.0, 0.0, 0.0, d2r(90)]), a , v)
release
movel(pose_trans(p[5.0, 7.5, 2.01, 1.0, 3.0, 2.0], p[0.0, 0.0, 0.0, 0.0, 0.0, d2r(90)]), a , v)

movel(p[0.0, 0.0, 0.01, 1.0, 3.0, 2.0], a, v)
movel(p[0.0, 0.0, 0.0, 1.0, 3.0, 2.0], a, v)
grip
movel(p[0.0, 0.0, 0.01, 1.0, 3.0, 2.0], a, v)
movel(pose_trans(p[7.0, 1.5, 2.01, 1.0, 3.0, 2.0], p[0.0, 0.0, 0.0, 0.0, 0.0, d2r(270)]), a , v)
movel(pose_trans(p[7.0, 1.5, 2, 1.0, 3.0, 2.0], p[0.0, 0.0, 0.0, 0.0, 0.0, d2r(270)]), a , v)
release
movel(pose_trans(p[7.0, 1.5, 2.01, 1.0, 3.0, 2.0], p[0.0, 0.0, 0.0, 0.0, 0.0, d2r(270)]), a , v)

movel(p[0.0, 0.0, 0.01, 1.0, 3.0, 2.0], a, v)
movel(p[0.0, 0.0, 0.0, 1.0, 3.0, 2.0], a, v)
grip
movel(p[0.0, 0.0, 0.01, 1.0, 3.0, 2.0], a, v)
movel(pose_trans(p[7.0, 4.5, 2.01, 1.0, 3.0, 2.0], p[0.0, 0.0, 0.0, 0.0, 0.0, d2r(90)]), a , v)
movel(pose_trans(p[7.0, 4.5, 2, 1.0, 3.0, 2.0], p[0.0, 0.0, 0.0, 0.0, 0.0, d2r(90)]), a , v)
release
movel(pose_trans(p[7.0, 4.5, 2.01, 1.0, 3.0, 2.0], p[0.0, 0.0, 0.0, 0.0, 0.0, d2r(90)]), a , v)

movel(p[0.0, 0.0, 0.01, 1.0, 3.0, 2.0], a, v)
movel(p[0.0, 0.0, 0.0, 1.0, 3.0, 2.0], a, v)
grip
movel(p[0.0, 0.0, 0.01, 1.0, 3.0, 2.0], a, v)
movel(pose_trans(p[7.0, 7.5, 2.01, 1.0, 3.0, 2.0], p[0.0, 0.0, 0.0, 0.0, 0.0, d2r(90)]), a , v)
movel(pose_trans(p[7.0, 7.5, 2, 1.0, 3.0, 2.0], p[0.0, 0.0, 0.0, 0.0, 0.0, d2r(90)]), a , v)
release
movel(pose_trans(p[7.0, 7.5, 2.01, 1.0, 3.0, 2.0], p[0.0, 0.0, 0.0, 0.0, 0.0, d2r(90)]), a , v)

movel(p[0.0, 0.0, 0.01, 1.0, 3.0, 2.0], a, v)
movel(p[0.0, 0.0, 0.0, 1.0, 3.0, 2.0], a, v)
grip
movel(p[0.0, 0.0, 0.01, 1.0, 3.0, 2.0], a, v)
movel(pose_trans(p[9.0, 1.5, 2.01, 1.0, 3.0, 2.0], p[0.0, 0.0, 0.0, 0.0, 0.0, d2r(270)]), a , v)
movel(pose_trans(p[9.0, 1.5, 2, 1.0, 3.0, 2.0], p[0.0, 0.0, 0.0, 0.0, 0.0, d2r(270)]), a , v)
release
movel(pose_trans(p[9.0, 1.5, 2.01, 1.0, 3.0, 2.0], p[0.0, 0.0, 0.0, 0.0, 0.0, d2r(270)]), a , v)

movel(p[0.0, 0.0, 0.01, 1.0, 3.0, 2.0], a, v)
movel(p[0.0, 0.0, 0.0, 1.0, 3.0, 2.0], a, v)
grip
movel(p[0.0, 0.0, 0.01, 1.0, 3.0, 2.0], a, v)
movel(pose_trans(p[9.0, 4.5, 2.01, 1.0, 3.0, 2.0], p[0.0, 0.0, 0.0, 0.0, 0.0, d2r(90)]), a , v)
movel(pose_trans(p[9.0, 4.5, 2, 1.0, 3.0, 2.0], p[0.0, 0.0, 0.0, 0.0, 0.0, d2r(90)]), a , v)
release
movel(pose_trans(p[9.0, 4.5, 2.01, 1.0, 3.0, 2.0], p[0.0, 0.0, 0.0, 0.0, 0.0, d2r(90)]), a , v)

movel(p[0.0, 0.0, 0.01, 1.0, 3.0, 2.0], a, v)
movel(p[0.0, 0.0, 0.0, 1.0, 3.0, 2.0], a, v)
grip
movel(p[0.0, 0.0, 0.01, 1.0, 3.0, 2.0], a, v)
movel(pose_trans(p[9.0, 7.5, 2.01, 1.0, 3.0, 2.0], p[0.0, 0.0, 0.0, 0.0, 0.0, d2r(90)]), a , v)
movel(pose_trans(p[9.0, 7.5, 2, 1.0, 3.0, 2.0], p[0.0, 0.0, 0.0, 0.0, 0.0, d2r(90)]), a , v)
release
movel(pose_trans(p[9.0, 7.5, 2.01, 1.0, 3.0, 2.0], p[0.0, 0.0, 0.0, 0.0, 0.0, d2r(90)]), a , v)

movel(p[0.0, 0.0, 0.01, 1.0, 3.0, 2.0], a, v)
movel(p[0.0, 0.0, 0.0, 1.0, 3.0, 2.0], a, v)
grip
movel(p[0.0, 0.0, 0.01, 1.0, 3.0, 2.0], a, v)
movel(pose_trans(p[11.0, 1.5, 2.01, 1.0, 3.0, 2.0], p[0.0, 0.0, 0.0, 0.0, 0.0, d2r(270)]), a , v)
movel(pose_trans(p[11.0, 1.5, 2, 1.0, 3.0, 2.0], p[0.0, 0.0, 0.0, 0.0, 0.0, d2r(270)]), a , v)
release
movel(pose_trans(p[11.0, 1.5, 2.01, 1.0, 3.0, 2.0], p[0.0, 0.0, 0.0, 0.0, 0.0, d2r(270)]), a , v)

movel(p[0.0, 0.0, 0.01, 1.0, 3.0, 2.0], a, v)
movel(p[0.0, 0.0, 0.0, 1.0, 3.0, 2.0], a, v)
grip
movel(p[0.0, 0.0, 0.01, 1.0, 3.0, 2.0], a, v)
movel(pose_trans(p[11.0, 4.5, 2.01, 1.0, 3.0, 2.0], p[0.0, 0.0, 0.0, 0.0, 0.0, d2r(90)]), a , v)
movel(pose_trans(p[11.0, 4.5, 2, 1.0, 3.0, 2.0], p[0.0, 0.0, 0.0, 0.0, 0.0, d2r(90)]), a , v)
release
movel(pose_trans(p[11.0, 4.5, 2.01, 1.0, 3.0, 2.0], p[0.0, 0.0, 0.0, 0.0, 0.0, d2r(90)]), a , v)

movel(p[0.0, 0.0, 0.01, 1.0, 3.0, 2.0], a, v)
movel(p[0.0, 0.0, 0.0, 1.0, 3.0, 2.0], a, v)
grip
movel(p[0.0, 0.0, 0.01, 1.0, 3.0, 2.0], a, v)
movel(pose_trans(p[11.0, 7.5, 2.01, 1.0, 3.0, 2.0], p[0.0, 0.0, 0.0, 0.0, 0.0, d2r(90)]), a , v)
movel(pose_trans(p[11.0, 7.5, 2, 1.0, 3.0, 2.0], p[0.0, 0.0, 0.0, 0.0, 0.0, d2r(90)]), a , v)
release
movel(pose_trans(p[11.0, 7.5, 2.01, 1.0, 3.0, 2.0], p[0.0, 0.0, 0.0, 0.0, 0.0, d2r(90)]), a , v)

movel(p[0.0, 0.0, 0.01, 1.0, 3.0, 2.0], a, v)
movel(p[0.0, 0.0, 0.0, 1.0, 3.0, 2.0], a, v)
grip
movel(p[0.0, 0.0, 0.01, 1.0, 3.0, 2.0], a, v)
movel(pose_trans(p[11.0, 7.5, 4.01, 1.0, 3.0, 2.0], p[0.0, 0.0, 0.0, 0.0, 0.0, d2r(90)]), a , v)
movel(pose_trans(p[11.0, 7.5, 4, 1.0, 3.0, 2.0], p[0.0, 0.0, 0.0, 0.0, 0.0, d2r(90)]), a , v)
release
movel(pose_trans(p[11.0, 7.5, 4.01, 1.0, 3.0, 2.0], p[0.0, 0.0, 0.0, 0.0, 0.0, d2r(90)]), a , v)

movel(p[0.0, 0.0, 0.01, 1.0, 3.0, 2.0], a, v)
movel(p[0.0, 0.0, 0.0, 1.0, 3.0, 2.0], a, v)
grip
movel(p[0.0, 0.0, 0.01, 1.0, 3.0, 2.0], a, v)
movel(pose_trans(p[11.0, 4.5, 4.01, 1.0, 3.0, 2.0], p[0.0, 0.0, 0.0, 0.0, 0.0, d2r(90)]), a , v)
movel(pose_trans(p[11.0, 4.5, 4, 1.0, 3.0, 2.0], p[0.0, 0.0, 0.0, 0.0, 0.0, d2r(90)]), a , v)
release
movel(pose_trans(p[11.0, 4.5, 4.01, 1.0, 3.0, 2.0], p[0.0, 0.0, 0.0, 0.0, 0.0, d2r(90)]), a , v)

movel(p[0.0, 0.0, 0.01, 1.0, 3.0, 2.0], a, v)
movel(p[0.0, 0.0, 0.0, 1.0, 3.0, 2.0], a, v)
grip
movel(p[0.0, 0.0, 0.01, 1.0, 3.0, 2.0], a, v)
movel(pose_trans(p[11.0, 1.5, 4.01, 1.0, 3.0, 2.0], p[0.0, 0.0, 0.0, 0.0, 0.0, d2r(270)]), a , v)
movel(pose_trans(p[11.0, 1.5, 4, 1.0, 3.0, 2.0], p[0.0, 0.0, 0.0, 0.0, 0.0, d2r(270)]), a , v)
release
movel(pose_trans(p[11.0, 1.5, 4.01, 1.0, 3.0, 2.0], p[0.0, 0.0, 0.0, 0.0, 0.0, d2r(270)]), a , v)

movel(p[0.0, 0.0, 0.01, 1.0, 3.0, 2.0], a, v)
movel(p[0.0, 0.0, 0.0, 1.0, 3.0, 2.0], a, v)
grip
movel(p[0.0, 0.0, 0.01, 1.0, 3.0, 2.0], a, v)
movel(pose_trans(p[9.0, 7.5, 4.01, 1.0, 3.0, 2.0], p[0.0, 0.0, 0.0, 0.0, 0.0, d2r(90)]), a , v)
movel(pose_trans(p[9.0, 7.5, 4, 1.0, 3.0, 2.0], p[0.0, 0.0, 0.0, 0.0, 0.0, d2r(90)]), a , v)
release
movel(pose_trans(p[9.0, 7.5, 4.01, 1.0, 3.0, 2.0], p[0.0, 0.0, 0.0, 0.0, 0.0, d2r(90)]), a , v)

movel(p[0.0, 0.0, 0.01, 1.0, 3.0, 2.0], a, v)
movel(p[0.0, 0.0, 0.0, 1.0, 3.0, 2.0], a, v)
grip
movel(p[0.0, 0.0, 0.01, 1.0, 3.0, 2.0], a, v)
movel(pose_trans(p[9.0, 4.5, 4.01, 1.0, 3.0, 2.0], p[0.0, 0.0, 0.0, 0.0, 0.0, d2r(90)]), a , v)
movel(pose_trans(p[9.0, 4.5, 4, 1.0, 3.0, 2.0], p[0.0, 0.0, 0.0, 0.0, 0.0, d2r(90)]), a , v)
release
movel(pose_trans(p[9.0, 4.5, 4.01, 1.0, 3.0, 2.0], p[0.0, 0.0, 0.0, 0.0, 0.0, d2r(90)]), a , v)

movel(p[0.0, 0.0, 0.01, 1.0, 3.0, 2.0], a, v)
movel(p[0.0, 0.0, 0.0, 1.0, 3.0, 2.0], a, v)
grip
movel(p[0.0, 0.0, 0.01, 1.0, 3.0, 2.0], a, v)
movel(pose_trans(p[9.0, 1.5, 4.01, 1.0, 3.0, 2.0], p[0.0, 0.0, 0.0, 0.0, 0.0, d2r(270)]), a , v)
movel(pose_trans(p[9.0, 1.5, 4, 1.0, 3.0, 2.0], p[0.0, 0.0, 0.0, 0.0, 0.0, d2r(270)]), a , v)
release
movel(pose_trans(p[9.0, 1.5, 4.01, 1.0, 3.0, 2.0], p[0.0, 0.0, 0.0, 0.0, 0.0, d2r(270)]), a , v)

movel(p[0.0, 0.0, 0.01, 1.0, 3.0, 2.0], a, v)
movel(p[0.0, 0.0, 0.0, 1.0, 3.0, 2.0], a, v)
grip
movel(p[0.0, 0.0, 0.01, 1.0, 3.0, 2.0], a, v)
movel(pose_trans(p[7.0, 7.5, 4.01, 1.0, 3.0, 2.0], p[0.0, 0.0, 0.0, 0.0, 0.0, d2r(90)]), a , v)
movel(pose_trans(p[7.0, 7.5, 4, 1.0, 3.0, 2.0], p[0.0, 0.0, 0.0, 0.0, 0.0, d2r(90)]), a , v)
release
movel(pose_trans(p[7.0, 7.5, 4.01, 1.0, 3.0, 2.0], p[0.0, 0.0, 0.0, 0.0, 0.0, d2r(90)]), a , v)

movel(p[0.0, 0.0, 0.01, 1.0, 3.0, 2.0], a, v)
movel(p[0.0, 0.0, 0.0, 1.0, 3.0, 2.0], a, v)
grip
movel(p[0.0, 0.0, 0.01, 1.0, 3.0, 2.0], a, v)
movel(pose_trans(p[7.0, 4.5, 4.01, 1.0, 3.0, 2.0], p[0.0, 0.0, 0.0, 0.0, 0.0, d2r(90)]), a , v)
movel(pose_trans(p[7.0, 4.5, 4, 1.0, 3.0, 2.0], p[0.0, 0.0, 0.0, 0.0, 0.0, d2r(90)]), a , v)
release
movel(pose_trans(p[7.0, 4.5, 4.01, 1.0, 3.0, 2.0], p[0.0, 0.0, 0.0, 0.0, 0.0, d2r(90)]), a , v)

movel(p[0.0, 0.0, 0.01, 1.0, 3.0, 2.0], a, v)
movel(p[0.0, 0.0, 0.0, 1.0, 3.0, 2.0], a, v)
grip
movel(p[0.0, 0.0, 0.01, 1.0, 3.0, 2.0], a, v)
movel(pose_trans(p[7.0, 1.5, 4.01, 1.0, 3.0, 2.0], p[0.0, 0.0, 0.0, 0.0, 0.0, d2r(270)]), a , v)
movel(pose_trans(p[7.0, 1.5, 4, 1.0, 3.0, 2.0], p[0.0, 0.0, 0.0, 0.0, 0.0, d2r(270)]), a , v)
release
movel(pose_trans(p[7.0, 1.5, 4.01, 1.0, 3.0, 2.0], p[0.0, 0.0, 0.0, 0.0, 0.0, d2r(270)]), a , v)

movel(p[0.0, 0.0, 0.01, 1.0, 3.0, 2.0], a, v)
movel(p[0.0, 0.0, 0.0, 1.0, 3.0, 2.0], a, v)
grip
movel(p[0.0, 0.0, 0.01, 1.0, 3.0, 2.0], a, v)
movel(pose_trans(p[5.0, 7.5, 4.01, 1.0, 3.0, 2.0], p[0.0, 0.0, 0.0, 0.0, 0.0, d2r(90)]), a , v)
movel(pose_trans(p[5.0, 7.5, 4, 1.0, 3.0, 2.0], p[0.0, 0.0, 0.0, 0.0, 0.0, d2r(90)]), a , v)
release
movel(pose_trans(p[5.0, 7.5, 4.01, 1.0, 3.0, 2.0], p[0.0, 0.0, 0.0, 0.0, 0.0, d2r(90)]), a , v)

movel(p[0.0, 0.0, 0.01, 1.0, 3.0, 2.0], a, v)
movel(p[0.0, 0.0, 0.0, 1.0, 3.0, 2.0], a, v)
grip
movel(p[0.0, 0.0, 0.01, 1.0, 3.0, 2.0], a, v)
movel(pose_trans(p[5.0, 4.5, 4.01, 1.0, 3.0, 2.0], p[0.0, 0.0, 0.0, 0.0, 0.0, d2r(90)]), a , v)
movel(pose_trans(p[5.0, 4.5, 4, 1.0, 3.0, 2.0], p[0.0, 0.0, 0.0, 0.0, 0.0, d2r(90)]), a , v)
release
movel(pose_trans(p[5.0, 4.5, 4.01, 1.0, 3.0, 2.0], p[0.0, 0.0, 0.0, 0.0, 0.0, d2r(90)]), a , v)

movel(p[0.0, 0.0, 0.01, 1.0, 3.0, 2.0], a, v)
movel(p[0.0, 0.0, 0.0, 1.0, 3.0, 2.0], a, v)
grip
movel(p[0.0, 0.0, 0.01, 1.0, 3.0, 2.0], a, v)
movel(pose_trans(p[5.0, 1.5, 4.01, 1.0, 3.0, 2.0], p[0.0, 0.0, 0.0, 0.0, 0.0, d2r(270)]), a , v)
movel(pose_trans(p[5.0, 1.5, 4, 1.0, 3.0, 2.0], p[0.0, 0.0, 0.0, 0.0, 0.0, d2r(270)]), a , v)
release
movel(pose_trans(p[5.0, 1.5, 4.01, 1.0, 3.0, 2.0], p[0.0, 0.0, 0.0, 0.0, 0.0, d2r(270)]), a , v)

movel(p[0.0, 0.0, 0.01, 1.0, 3.0, 2.0], a, v)
movel(p[0.0, 0.0, 0.0, 1.0, 3.0, 2.0], a, v)
grip
movel(p[0.0, 0.0, 0.01, 1.0, 3.0, 2.0], a, v)
movel(pose_trans(p[3.0, 7.5, 4.01, 1.0, 3.0, 2.0], p[0.0, 0.0, 0.0, 0.0, 0.0, d2r(90)]), a , v)
movel(pose_trans(p[3.0, 7.5, 4, 1.0, 3.0, 2.0], p[0.0, 0.0, 0.0, 0.0, 0.0, d2r(90)]), a , v)
release
movel(pose_trans(p[3.0, 7.5, 4.01, 1.0, 3.0, 2.0], p[0.0, 0.0, 0.0, 0.0, 0.0, d2r(90)]), a , v)

movel(p[0.0, 0.0, 0.01, 1.0, 3.0, 2.0], a, v)
movel(p[0.0, 0.0, 0.0, 1.0, 3.0, 2.0], a, v)
grip
movel(p[0.0, 0.0, 0.01, 1.0, 3.0, 2.0], a, v)
movel(pose_trans(p[3.0, 4.5, 4.01, 1.0, 3.0, 2.0], p[0.0, 0.0, 0.0, 0.0, 0.0, d2r(90)]), a , v)
movel(pose_trans(p[3.0, 4.5, 4, 1.0, 3.0, 2.0], p[0.0, 0.0, 0.0, 0.0, 0.0, d2r(90)]), a , v)
release
movel(pose_trans(p[3.0, 4.5, 4.01, 1.0, 3.0, 2.0], p[0.0, 0.0, 0.0, 0.0, 0.0, d2r(90)]), a , v)

movel(p[0.0, 0.0, 0.01, 1.0, 3.0, 2.0], a, v)
movel(p[0.0, 0.0, 0.0, 1.0, 3.0, 2.0], a, v)
grip
movel(p[0.0, 0.0, 0.01, 1.0, 3.0, 2.0], a, v)
movel(pose_trans(p[3.0, 1.5, 4.01, 1.0, 3.0, 2.0], p[0.0, 0.0, 0.0, 0.0, 0.0, d2r(270)]), a , v)
movel(pose_trans(p[3.0, 1.5, 4, 1.0, 3.0, 2.0], p[0.0, 0.0, 0.0, 0.0, 0.0, d2r(270)]), a , v)
release
movel(pose_trans(p[3.0, 1.5, 4.01, 1.0, 3.0, 2.0], p[0.0, 0.0, 0.0, 0.0, 0.0, d2r(270)]), a , v)

movel(p[0.0, 0.0, 0.01, 1.0, 3.0, 2.0], a, v)
movel(p[0.0, 0.0, 0.0, 1.0, 3.0, 2.0], a, v)
grip
movel(p[0.0, 0.0, 0.01, 1.0, 3.0, 2.0], a, v)
movel(pose_trans(p[1.0, 7.5, 4.01, 1.0, 3.0, 2.0], p[0.0, 0.0, 0.0, 0.0, 0.0, d2r(90)]), a , v)
movel(pose_trans(p[1.0, 7.5, 4, 1.0, 3.0, 2.0], p[0.0, 0.0, 0.0, 0.0, 0.0, d2r(90)]), a , v)
release
movel(pose_trans(p[1.0, 7.5, 4.01, 1.0, 3.0, 2.0], p[0.0, 0.0, 0.0, 0.0, 0.0, d2r(90)]), a , v)

movel(p[0.0, 0.0, 0.01, 1.0, 3.0, 2.0], a, v)
movel(p[0.0, 0.0, 0.0, 1.0, 3.0, 2.0], a, v)
grip
movel(p[0.0, 0.0, 0.01, 1.0, 3.0, 2.0], a, v)
movel(pose_trans(p[1.0, 4.5, 4.01, 1.0, 3.0, 2.0], p[0.0, 0.0, 0.0, 0.0, 0.0, d2r(90)]), a , v)
movel(pose_trans(p[1.0, 4.5, 4, 1.0, 3.0, 2.0], p[0.0, 0.0, 0.0, 0.0, 0.0, d2r(90)]), a , v)
release
movel(pose_trans(p[1.0, 4.5, 4.01, 1.0, 3.0, 2.0], p[0.0, 0.0, 0.0, 0.0, 0.0, d2r(90)]), a , v)

movel(p[0.0, 0.0, 0.01, 1.0, 3.0, 2.0], a, v)
movel(p[0.0, 0.0, 0.0, 1.0, 3.0, 2.0], a, v)
grip
movel(p[0.0, 0.0, 0.01, 1.0, 3.0, 2.0], a, v)
movel(pose_trans(p[1.0, 1.5, 4.01, 1.0, 3.0, 2.0], p[0.0, 0.0, 0.0, 0.0, 0.0, d2r(270)]), a , v)
movel(pose_trans(p[1.0, 1.5, 4, 1.0, 3.0, 2.0], p[0.0, 0.0, 0.0, 0.0, 0.0, d2r(270)]), a , v)
release
movel(pose_trans(p[1.0, 1.5, 4.01, 1.0, 3.0, 2.0], p[0.0, 0.0, 0.0, 0.0, 0.0, d2r(270)]), a , v)

movel(p[0.0, 0.0, 0.01, 1.0, 3.0, 2.0], a, v)
movel(p[0.0, 0.0, 0.0, 1.0, 3.0, 2.0], a, v)
grip
movel(p[0.0, 0.0, 0.01, 1.0, 3.0, 2.0], a, v)
movel(pose_trans(p[1.0, 1.5, 6.01, 1.0, 3.0, 2.0], p[0.0, 0.0, 0.0, 0.0, 0.0, d2r(270)]), a , v)
movel(pose_trans(p[1.0, 1.5, 6, 1.0, 3.0, 2.0], p[0.0, 0.0, 0.0, 0.0, 0.0, d2r(270)]), a , v)
release
movel(pose_trans(p[1.0, 1.5, 6.01, 1.0, 3.0, 2.0], p[0.0, 0.0, 0.0, 0.0, 0.0, d2r(270)]), a , v)

movel(p[0.0, 0.0, 0.01, 1.0, 3.0, 2.0], a, v)
movel(p[0.0, 0.0, 0.0, 1.0, 3.0, 2.0], a, v)
grip
movel(p[0.0, 0.0, 0.01, 1.0, 3.0, 2.0], a, v)
movel(pose_trans(p[1.0, 4.5, 6.01, 1.0, 3.0, 2.0], p[0.0, 0.0, 0.0, 0.0, 0.0, d2r(90)]), a , v)
movel(pose_trans(p[1.0, 4.5, 6, 1.0, 3.0, 2.0], p[0.0, 0.0, 0.0, 0.0, 0.0, d2r(90)]), a , v)
release
movel(pose_trans(p[1.0, 4.5, 6.01, 1.0, 3.0, 2.0], p[0.0, 0.0, 0.0, 0.0, 0.0, d2r(90)]), a , v)

movel(p[0.0, 0.0, 0.01, 1.0, 3.0, 2.0], a, v)
movel(p[0.0, 0.0, 0.0, 1.0, 3.0, 2.0], a, v)
grip
movel(p[0.0, 0.0, 0.01, 1.0, 3.0, 2.0], a, v)
movel(pose_trans(p[1.0, 7.5, 6.01, 1.0, 3.0, 2.0], p[0.0, 0.0, 0.0, 0.0, 0.0, d2r(90)]), a , v)
movel(pose_trans(p[1.0, 7.5, 6, 1.0, 3.0, 2.0], p[0.0, 0.0, 0.0, 0.0, 0.0, d2r(90)]), a , v)
release
movel(pose_trans(p[1.0, 7.5, 6.01, 1.0, 3.0, 2.0], p[0.0, 0.0, 0.0, 0.0, 0.0, d2r(90)]), a , v)

movel(p[0.0, 0.0, 0.01, 1.0, 3.0, 2.0], a, v)
movel(p[0.0, 0.0, 0.0, 1.0, 3.0, 2.0], a, v)
grip
movel(p[0.0, 0.0, 0.01, 1.0, 3.0, 2.0], a, v)
movel(pose_trans(p[3.0, 1.5, 6.01, 1.0, 3.0, 2.0], p[0.0, 0.0, 0.0, 0.0, 0.0, d2r(270)]), a , v)
movel(pose_trans(p[3.0, 1.5, 6, 1.0, 3.0, 2.0], p[0.0, 0.0, 0.0, 0.0, 0.0, d2r(270)]), a , v)
release
movel(pose_trans(p[3.0, 1.5, 6.01, 1.0, 3.0, 2.0], p[0.0, 0.0, 0.0, 0.0, 0.0, d2r(270)]), a , v)

movel(p[0.0, 0.0, 0.01, 1.0, 3.0, 2.0], a, v)
movel(p[0.0, 0.0, 0.0, 1.0, 3.0, 2.0], a, v)
grip
movel(p[0.0, 0.0, 0.01, 1.0, 3.0, 2.0], a, v)
movel(pose_trans(p[3.0, 4.5, 6.01, 1.0, 3.0, 2.0], p[0.0, 0.0, 0.0, 0.0, 0.0, d2r(90)]), a , v)
movel(pose_trans(p[3.0, 4.5, 6, 1.0, 3.0, 2.0], p[0.0, 0.0, 0.0, 0.0, 0.0, d2r(90)]), a , v)
release
movel(pose_trans(p[3.0, 4.5, 6.01, 1.0, 3.0, 2.0], p[0.0, 0.0, 0.0, 0.0, 0.0, d2r(90)]), a , v)

movel(p[0.0, 0.0, 0.01, 1.0, 3.0, 2.0], a, v)
movel(p[0.0, 0.0, 0.0, 1.0, 3.0, 2.0], a, v)
grip
movel(p[0.0, 0.0, 0.01, 1.0, 3.0, 2.0], a, v)
movel(pose_trans(p[3.0, 7.5, 6.01, 1.0, 3.0, 2.0], p[0.0, 0.0, 0.0, 0.0, 0.0, d2r(90)]), a , v)
movel(pose_trans(p[3.0, 7.5, 6, 1.0, 3.0, 2.0], p[0.0, 0.0, 0.0, 0.0, 0.0, d2r(90)]), a , v)
release
movel(pose_trans(p[3.0, 7.5, 6.01, 1.0, 3.0, 2.0], p[0.0, 0.0, 0.0, 0.0, 0.0, d2r(90)]), a , v)

movel(p[0.0, 0.0, 0.01, 1.0, 3.0, 2.0], a, v)
movel(p[0.0, 0.0, 0.0, 1.0, 3.0, 2.0], a, v)
grip
movel(p[0.0, 0.0, 0.01, 1.0, 3.0, 2.0], a, v)
movel(pose_trans(p[5.0, 1.5, 6.01, 1.0, 3.0, 2.0], p[0.0, 0.0, 0.0, 0.0, 0.0, d2r(270)]), a , v)
movel(pose_trans(p[5.0, 1.5, 6, 1.0, 3.0, 2.0], p[0.0, 0.0, 0.0, 0.0, 0.0, d2r(270)]), a , v)
release
movel(pose_trans(p[5.0, 1.5, 6.01, 1.0, 3.0, 2.0], p[0.0, 0.0, 0.0, 0.0, 0.0, d2r(270)]), a , v)

movel(p[0.0, 0.0, 0.01, 1.0, 3.0, 2.0], a, v)
movel(p[0.0, 0.0, 0.0, 1.0, 3.0, 2.0], a, v)
grip
movel(p[0.0, 0.0, 0.01, 1.0, 3.0, 2.0], a, v)
movel(pose_trans(p[5.0, 4.5, 6.01, 1.0, 3.0, 2.0], p[0.0, 0.0, 0.0, 0.0, 0.0, d2r(90)]), a , v)
movel(pose_trans(p[5.0, 4.5, 6, 1.0, 3.0, 2.0], p[0.0, 0.0, 0.0, 0.0, 0.0, d2r(90)]), a , v)
release
movel(pose_trans(p[5.0, 4.5, 6.01, 1.0, 3.0, 2.0], p[0.0, 0.0, 0.0, 0.0, 0.0, d2r(90)]), a , v)

movel(p[0.0, 0.0, 0.01, 1.0, 3.0, 2.0], a, v)
movel(p[0.0, 0.0, 0.0, 1.0, 3.0, 2.0], a, v)
grip
movel(p[0.0, 0.0, 0.01, 1.0, 3.0, 2.0], a, v)
movel(pose_trans(p[5.0, 7.5, 6.01, 1.0, 3.0, 2.0], p[0.0, 0.0, 0.0, 0.0, 0.0, d2r(90)]), a , v)
movel(pose_trans(p[5.0, 7.5, 6, 1.0, 3.0, 2.0], p[0.0, 0.0, 0.0, 0.0, 0.0, d2r(90)]), a , v)
release
movel(pose_trans(p[5.0, 7.5, 6.01, 1.0, 3.0, 2.0], p[0.0, 0.0, 0.0, 0.0, 0.0, d2r(90)]), a , v)

movel(p[0.0, 0.0, 0.01, 1.0, 3.0, 2.0], a, v)
movel(p[0.0, 0.0, 0.0, 1.0, 3.0, 2.0], a, v)
grip
movel(p[0.0, 0.0, 0.01, 1.0, 3.0, 2.0], a, v)
movel(pose_trans(p[7.0, 1.5, 6.01, 1.0, 3.0, 2.0], p[0.0, 0.0, 0.0, 0.0, 0.0, d2r(270)]), a , v)
movel(pose_trans(p[7.0, 1.5, 6, 1.0, 3.0, 2.0], p[0.0, 0.0, 0.0, 0.0, 0.0, d2r(270)]), a , v)
release
movel(pose_trans(p[7.0, 1.5, 6.01, 1.0, 3.0, 2.0], p[0.0, 0.0, 0.0, 0.0, 0.0, d2r(270)]), a , v)

movel(p[0.0, 0.0, 0.01, 1.0, 3.0, 2.0], a, v)
movel(p[0.0, 0.0, 0.0, 1.0, 3.0, 2.0], a, v)
grip
movel(p[0.0, 0.0, 0.01, 1.0, 3.0, 2.0], a, v)
movel(pose_trans(p[7.0, 4.5, 6.01, 1.0, 3.0, 2.0], p[0.0, 0.0, 0.0, 0.0, 0.0, d2r(90)]), a , v)
movel(pose_trans(p[7.0, 4.5, 6, 1.0, 3.0, 2.0], p[0.0, 0.0, 0.0, 0.0, 0.0, d2r(90)]), a , v)
release
movel(pose_trans(p[7.0, 4.5, 6.01, 1.0, 3.0, 2.0], p[0.0, 0.0, 0.0, 0.0, 0.0, d2r(90)]), a , v)

movel(p[0.0, 0.0, 0.01, 1.0, 3.0, 2.0], a, v)
movel(p[0.0, 0.0, 0.0, 1.0, 3.0, 2.0], a, v)
grip
movel(p[0.0, 0.0, 0.01, 1.0, 3.0, 2.0], a, v)
movel(pose_trans(p[7.0, 7.5, 6.01, 1.0, 3.0, 2.0], p[0.0, 0.0, 0.0, 0.0, 0.0, d2r(90)]), a , v)
movel(pose_trans(p[7.0, 7.5, 6, 1.0, 3.0, 2.0], p[0.0, 0.0, 0.0, 0.0, 0.0, d2r(90)]), a , v)
release
movel(pose_trans(p[7.0, 7.5, 6.01, 1.0, 3.0, 2.0], p[0.0, 0.0, 0.0, 0.0, 0.0, d2r(90)]), a , v)

movel(p[0.0, 0.0, 0.01, 1.0, 3.0, 2.0], a, v)
movel(p[0.0, 0.0, 0.0, 1.0, 3.0, 2.0], a, v)
grip
movel(p[0.0, 0.0, 0.01, 1.0, 3.0, 2.0], a, v)
movel(pose_trans(p[9.0, 1.5, 6.01, 1.0, 3.0, 2.0], p[0.0, 0.0, 0.0, 0.0, 0.0, d2r(270)]), a , v)
movel(pose_trans(p[9.0, 1.5, 6, 1.0, 3.0, 2.0], p[0.0, 0.0, 0.0, 0.0, 0.0, d2r(270)]), a , v)
release
movel(pose_trans(p[9.0, 1.5, 6.01, 1.0, 3.0, 2.0], p[0.0, 0.0, 0.0, 0.0, 0.0, d2r(270)]), a , v)

movel(p[0.0, 0.0, 0.01, 1.0, 3.0, 2.0], a, v)
movel(p[0.0, 0.0, 0.0, 1.0, 3.0, 2.0], a, v)
grip
movel(p[0.0, 0.0, 0.01, 1.0, 3.0, 2.0], a, v)
movel(pose_trans(p[9.0, 4.5, 6.01, 1.0, 3.0, 2.0], p[0.0, 0.0, 0.0, 0.0, 0.0, d2r(90)]), a , v)
movel(pose_trans(p[9.0, 4.5, 6, 1.0, 3.0, 2.0], p[0.0, 0.0, 0.0, 0.0, 0.0, d2r(90)]), a , v)
release
movel(pose_trans(p[9.0, 4.5, 6.01, 1.0, 3.0, 2.0], p[0.0, 0.0, 0.0, 0.0, 0.0, d2r(90)]), a , v)

movel(p[0.0, 0.0, 0.01, 1.0, 3.0, 2.0], a, v)
movel(p[0.0, 0.0, 0.0, 1.0, 3.0, 2.0], a, v)
grip
movel(p[0.0, 0.0, 0.01, 1.0, 3.0, 2.0], a, v)
movel(pose_trans(p[9.0, 7.5, 6.01, 1.0, 3.0, 2.0], p[0.0, 0.0, 0.0, 0.0, 0.0, d2r(90)]), a , v)
movel(pose_trans(p[9.0, 7.5, 6, 1.0, 3.0, 2.0], p[0.0, 0.0, 0.0, 0.0, 0.0, d2r(90)]), a , v)
release
movel(pose_trans(p[9.0, 7.5, 6.01, 1.0, 3.0, 2.0], p[0.0, 0.0, 0.0, 0.0, 0.0, d2r(90)]), a , v)

movel(p[0.0, 0.0, 0.01, 1.0, 3.0, 2.0], a, v)
movel(p[0.0, 0.0, 0.0, 1.0, 3.0, 2.0], a, v)
grip
movel(p[0.0, 0.0, 0.01, 1.0, 3.0, 2.0], a, v)
movel(pose_trans(p[11.0, 1.5, 6.01, 1.0, 3.0, 2.0], p[0.0, 0.0, 0.0, 0.0, 0.0, d2r(270)]), a , v)
movel(pose_trans(p[11.0, 1.5, 6, 1.0, 3.0, 2.0], p[0.0, 0.0, 0.0, 0.0, 0.0, d2r(270)]), a , v)
release
movel(pose_trans(p[11.0, 1.5, 6.01, 1.0, 3.0, 2.0], p[0.0, 0.0, 0.0, 0.0, 0.0, d2r(270)]), a , v)

movel(p[0.0, 0.0, 0.01, 1.0, 3.0, 2.0], a, v)
movel(p[0.0, 0.0, 0.0, 1.0, 3.0, 2.0], a, v)
grip
movel(p[0.0, 0.0, 0.01, 1.0, 3.0, 2.0], a, v)
movel(pose_trans(p[11.0, 4.5, 6.01, 1.0, 3.0, 2.0], p[0.0, 0.0, 0.0, 0.0, 0.0, d2r(90)]), a , v)
movel(pose_trans(p[11.0, 4.5, 6, 1.0, 3.0, 2.0], p[0.0, 0.0, 0.0, 0.0, 0.0, d2r(90)]), a , v)
release
movel(pose_trans(p[11.0, 4.5, 6.01, 1.0, 3.0, 2.0], p[0.0, 0.0, 0.0, 0.0, 0.0, d2r(90)]), a , v)

movel(p[0.0, 0.0, 0.01, 1.0, 3.0, 2.0], a, v)
movel(p[0.0, 0.0, 0.0, 1.0, 3.0, 2.0], a, v)
grip
movel(p[0.0, 0.0, 0.01, 1.0, 3.0, 2.0], a, v)
movel(pose_trans(p[11.0, 7.5, 6.01, 1.0, 3.0, 2.0], p[0.0, 0.0, 0.0, 0.0, 0.0, d2r(90)]), a , v)
movel(pose_trans(p[11.0, 7.5, 6, 1.0, 3.0, 2.0], p[0.0, 0.0, 0.0, 0.0, 0.0, d2r(90)]), a , v)
release
movel(pose_trans(p[11.0, 7.5, 6.01, 1.0, 3.0, 2.0], p[0.0, 0.0, 0.0, 0.0, 0.0, d2r(90)]), a , v)

movel(p[0.0, 0.0, 0.01, 1.0, 3.0, 2.0], a, v)
movel(p[0.0, 0.0, 0.0, 1.0, 3.0, 2.0], a, v)
grip
movel(p[0.0, 0.0, 0.01, 1.0, 3.0, 2.0], a, v)
movel(pose_trans(p[11.0, 7.5, 8.01, 1.0, 3.0, 2.0], p[0.0, 0.0, 0.0, 0.0, 0.0, d2r(90)]), a , v)
movel(pose_trans(p[11.0, 7.5, 8, 1.0, 3.0, 2.0], p[0.0, 0.0, 0.0, 0.0, 0.0, d2r(90)]), a , v)
release
movel(pose_trans(p[11.0, 7.5, 8.01, 1.0, 3.0, 2.0], p[0.0, 0.0, 0.0, 0.0, 0.0, d2r(90)]), a , v)

movel(p[0.0, 0.0, 0.01, 1.0, 3.0, 2.0], a, v)
movel(p[0.0, 0.0, 0.0, 1.0, 3.0, 2.0], a, v)
grip
movel(p[0.0, 0.0, 0.01, 1.0, 3.0, 2.0], a, v)
movel(pose_trans(p[11.0, 4.5, 8.01, 1.0, 3.0, 2.0], p[0.0, 0.0, 0.0, 0.0, 0.0, d2r(90)]), a , v)
movel(pose_trans(p[11.0, 4.5, 8, 1.0, 3.0, 2.0], p[0.0, 0.0, 0.0, 0.0, 0.0, d2r(90)]), a , v)
release
movel(pose_trans(p[11.0, 4.5, 8.01, 1.0, 3.0, 2.0], p[0.0, 0.0, 0.0, 0.0, 0.0, d2r(90)]), a , v)

movel(p[0.0, 0.0, 0.01, 1.0, 3.0, 2.0], a, v)
movel(p[0.0, 0.0, 0.0, 1.0, 3.0, 2.0], a, v)
grip
movel(p[0.0, 0.0, 0.01, 1.0, 3.0, 2.0], a, v)
movel(pose_trans(p[11.0, 1.5, 8.01, 1.0, 3.0, 2.0], p[0.0, 0.0, 0.0, 0.0, 0.0, d2r(270)]), a , v)
movel(pose_trans(p[11.0, 1.5, 8, 1.0, 3.0, 2.0], p[0.0, 0.0, 0.0, 0.0, 0.0, d2r(270)]), a , v)
release
movel(pose_trans(p[11.0, 1.5, 8.01, 1.0, 3.0, 2.0], p[0.0, 0.0, 0.0, 0.0, 0.0, d2r(270)]), a , v)

movel(p[0.0, 0.0, 0.01, 1.0, 3.0, 2.0], a, v)
movel(p[0.0, 0.0, 0.0, 1.0, 3.0, 2.0], a, v)
grip
movel(p[0.0, 0.0, 0.01, 1.0, 3.0, 2.0], a, v)
movel(pose_trans(p[9.0, 7.5, 8.01, 1.0, 3.0, 2.0], p[0.0, 0.0, 0.0, 0.0, 0.0, d2r(90)]), a , v)
movel(pose_trans(p[9.0, 7.5, 8, 1.0, 3.0, 2.0], p[0.0, 0.0, 0.0, 0.0, 0.0, d2r(90)]), a , v)
release
movel(pose_trans(p[9.0, 7.5, 8.01, 1.0, 3.0, 2.0], p[0.0, 0.0, 0.0, 0.0, 0.0, d2r(90)]), a , v)

movel(p[0.0, 0.0, 0.01, 1.0, 3.0, 2.0], a, v)
movel(p[0.0, 0.0, 0.0, 1.0, 3.0, 2.0], a, v)
grip
movel(p[0.0, 0.0, 0.01, 1.0, 3.0, 2.0], a, v)
movel(pose_trans(p[9.0, 4.5, 8.01, 1.0, 3.0, 2.0], p[0.0, 0.0, 0.0, 0.0, 0.0, d2r(90)]), a , v)
movel(pose_trans(p[9.0, 4.5, 8, 1.0, 3.0, 2.0], p[0.0, 0.0, 0.0, 0.0, 0.0, d2r(90)]), a , v)
release
movel(pose_trans(p[9.0, 4.5, 8.01, 1.0, 3.0, 2.0], p[0.0, 0.0, 0.0, 0.0, 0.0, d2r(90)]), a , v)

movel(p[0.0, 0.0, 0.01, 1.0, 3.0, 2.0], a, v)
movel(p[0.0, 0.0, 0.0, 1.0, 3.0, 2.0], a, v)
grip
movel(p[0.0, 0.0, 0.01, 1.0, 3.0, 2.0], a, v)
movel(pose_trans(p[9.0, 1.5, 8.01, 1.0, 3.0, 2.0], p[0.0, 0.0, 0.0, 0.0, 0.0, d2r(270)]), a , v)
movel(pose_trans(p[9.0, 1.5, 8, 1.0, 3.0, 2.0], p[0.0, 0.0, 0.0, 0.0, 0.0, d2r(270)]), a , v)
release
movel(pose_trans(p[9.0, 1.5, 8.01, 1.0, 3.0, 2.0], p[0.0, 0.0, 0.0, 0.0, 0.0, d2r(270)]), a , v)

movel(p[0.0, 0.0, 0.01, 1.0, 3.0, 2.0], a, v)
movel(p[0.0, 0.0, 0.0, 1.0, 3.0, 2.0], a, v)
grip
movel(p[0.0, 0.0, 0.01, 1.0, 3.0, 2.0], a, v)
movel(pose_trans(p[7.0, 7.5, 8.01, 1.0, 3.0, 2.0], p[0.0, 0.0, 0.0, 0.0, 0.0, d2r(90)]), a , v)
movel(pose_trans(p[7.0, 7.5, 8, 1.0, 3.0, 2.0], p[0.0, 0.0, 0.0, 0.0, 0.0, d2r(90)]), a , v)
release
movel(pose_trans(p[7.0, 7.5, 8.01, 1.0, 3.0, 2.0], p[0.0, 0.0, 0.0, 0.0, 0.0, d2r(90)]), a , v)

movel(p[0.0, 0.0, 0.01, 1.0, 3.0, 2.0], a, v)
movel(p[0.0, 0.0, 0.0, 1.0, 3.0, 2.0], a, v)
grip
movel(p[0.0, 0.0, 0.01, 1.0, 3.0, 2.0], a, v)
movel(pose_trans(p[7.0, 4.5, 8.01, 1.0, 3.0, 2.0], p[0.0, 0.0, 0.0, 0.0, 0.0, d2r(90)]), a , v)
movel(pose_trans(p[7.0, 4.5, 8, 1.0, 3.0, 2.0], p[0.0, 0.0, 0.0, 0.0, 0.0, d2r(90)]), a , v)
release
movel(pose_trans(p[7.0, 4.5, 8.01, 1.0, 3.0, 2.0], p[0.0, 0.0, 0.0, 0.0, 0.0, d2r(90)]), a , v)

movel(p[0.0, 0.0, 0.01, 1.0, 3.0, 2.0], a, v)
movel(p[0.0, 0.0, 0.0, 1.0, 3.0, 2.0], a, v)
grip
movel(p[0.0, 0.0, 0.01, 1.0, 3.0, 2.0], a, v)
movel(pose_trans(p[7.0, 1.5, 8.01, 1.0, 3.0, 2.0], p[0.0, 0.0, 0.0, 0.0, 0.0, d2r(270)]), a , v)
movel(pose_trans(p[7.0, 1.5, 8, 1.0, 3.0, 2.0], p[0.0, 0.0, 0.0, 0.0, 0.0, d2r(270)]), a , v)
release
movel(pose_trans(p[7.0, 1.5, 8.01, 1.0, 3.0, 2.0], p[0.0, 0.0, 0.0, 0.0, 0.0, d2r(270)]), a , v)

movel(p[0.0, 0.0, 0.01, 1.0, 3.0, 2.0], a, v)
movel(p[0.0, 0.0, 0.0, 1.0, 3.0, 2.0], a, v)
grip
movel(p[0.0, 0.0, 0.01, 1.0, 3.0, 2.0], a, v)
movel(pose_trans(p[5.0, 7.5, 8.01, 1.0, 3.0, 2.0], p[0.0, 0.0, 0.0, 0.0, 0.0, d2r(90)]), a , v)
movel(pose_trans(p[5.0, 7.5, 8, 1.0, 3.0, 2.0], p[0.0, 0.0, 0.0, 0.0, 0.0, d2r(90)]), a , v)
release
movel(pose_trans(p[5.0, 7.5, 8.01, 1.0, 3.0, 2.0], p[0.0, 0.0, 0.0, 0.0, 0.0, d2r(90)]), a , v)

movel(p[0.0, 0.0, 0.01, 1.0, 3.0, 2.0], a, v)
movel(p[0.0, 0.0, 0.0, 1.0, 3.0, 2.0], a, v)
grip
movel(p[0.0, 0.0, 0.01, 1.0, 3.0, 2.0], a, v)
movel(pose_trans(p[5.0, 4.5, 8.01, 1.0, 3.0, 2.0], p[0.0, 0.0, 0.0, 0.0, 0.0, d2r(90)]), a , v)
movel(pose_trans(p[5.0, 4.5, 8, 1.0, 3.0, 2.0], p[0.0, 0.0, 0.0, 0.0, 0.0, d2r(90)]), a , v)
release
movel(pose_trans(p[5.0, 4.5, 8.01, 1.0, 3.0, 2.0], p[0.0, 0.0, 0.0, 0.0, 0.0, d2r(90)]), a , v)

movel(p[0.0, 0.0, 0.01, 1.0, 3.0, 2.0], a, v)
movel(p[0.0, 0.0, 0.0, 1.0, 3.0, 2.0], a, v)
grip
movel(p[0.0, 0.0, 0.01, 1.0, 3.0, 2.0], a, v)
movel(pose_trans(p[5.0, 1.5, 8.01, 1.0, 3.0, 2.0], p[0.0, 0.0, 0.0, 0.0, 0.0, d2r(270)]), a , v)
movel(pose_trans(p[5.0, 1.5, 8, 1.0, 3.0, 2.0], p[0.0, 0.0, 0.0, 0.0, 0.0, d2r(270)]), a , v)
release
movel(pose_trans(p[5.0, 1.5, 8.01, 1.0, 3.0, 2.0], p[0.0, 0.0, 0.0, 0.0, 0.0, d2r(270)]), a , v)

movel(p[0.0, 0.0, 0.01, 1.0, 3.0, 2.0], a, v)
movel(p[0.0, 0.0, 0.0, 1.0, 3.0, 2.0], a, v)
grip
movel(p[0.0, 0.0, 0.01, 1.0, 3.0, 2.0], a, v)
movel(pose_trans(p[3.0, 7.5, 8.01, 1.0, 3.0, 2.0], p[0.0, 0.0, 0.0, 0.0, 0.0, d2r(90)]), a , v)
movel(pose_trans(p[3.0, 7.5, 8, 1.0, 3.0, 2.0], p[0.0, 0.0, 0.0, 0.0, 0.0, d2r(90)]), a , v)
release
movel(pose_trans(p[3.0, 7.5, 8.01, 1.0, 3.0, 2.0], p[0.0, 0.0, 0.0, 0.0, 0.0, d2r(90)]), a , v)

movel(p[0.0, 0.0, 0.01, 1.0, 3.0, 2.0], a, v)
movel(p[0.0, 0.0, 0.0, 1.0, 3.0, 2.0], a, v)
grip
movel(p[0.0, 0.0, 0.01, 1.0, 3.0, 2.0], a, v)
movel(pose_trans(p[3.0, 4.5, 8.01, 1.0, 3.0, 2.0], p[0.0, 0.0, 0.0, 0.0, 0.0, d2r(90)]), a , v)
movel(pose_trans(p[3.0, 4.5, 8, 1.0, 3.0, 2.0], p[0.0, 0.0, 0.0, 0.0, 0.0, d2r(90)]), a , v)
release
movel(pose_trans(p[3.0, 4.5, 8.01, 1.0, 3.0, 2.0], p[0.0, 0.0, 0.0, 0.0, 0.0, d2r(90)]), a , v)

movel(p[0.0, 0.0, 0.01, 1.0, 3.0, 2.0], a, v)
movel(p[0.0, 0.0, 0.0, 1.0, 3.0, 2.0], a, v)
grip
movel(p[0.0, 0.0, 0.01, 1.0, 3.0, 2.0], a, v)
movel(pose_trans(p[3.0, 1.5, 8.01, 1.0, 3.0, 2.0], p[0.0, 0.0, 0.0, 0.0, 0.0, d2r(270)]), a , v)
movel(pose_trans(p[3.0, 1.5, 8, 1.0, 3.0, 2.0], p[0.0, 0.0, 0.0, 0.0, 0.0, d2r(270)]), a , v)
release
movel(pose_trans(p[3.0, 1.5, 8.01, 1.0, 3.0, 2.0], p[0.0, 0.0, 0.0, 0.0, 0.0, d2r(270)]), a , v)

movel(p[0.0, 0.0, 0.01, 1.0, 3.0, 2.0], a, v)
movel(p[0.0, 0.0, 0.0, 1.0, 3.0, 2.0], a, v)
grip
movel(p[0.0, 0.0, 0.01, 1.0, 3.0, 2.0], a, v)
movel(pose_trans(p[1.0, 7.5, 8.01, 1.0, 3.0, 2.0], p[0.0, 0.0, 0.0, 0.0, 0.0, d2r(90)]), a , v)
movel(pose_trans(p[1.0, 7.5, 8, 1.0, 3.0, 2.0], p[0.0, 0.0, 0.0, 0.0, 0.0, d2r(90)]), a , v)
release
movel(pose_trans(p[1.0, 7.5, 8.01, 1.0, 3.0, 2.0], p[0.0, 0.0, 0.0, 0.0, 0.0, d2r(90)]), a , v)

movel(p[0.0, 0.0, 0.01, 1.0, 3.0, 2.0], a, v)
movel(p[0.0, 0.0, 0.0, 1.0, 3.0, 2.0], a, v)
grip
movel(p[0.0, 0.0, 0.01, 1.0, 3.0, 2.0], a, v)
movel(pose_trans(p[1.0, 4.5, 8.01, 1.0, 3.0, 2.0], p[0.0, 0.0, 0.0, 0.0, 0.0, d2r(90)]), a , v)
movel(pose_trans(p[1.0, 4.5, 8, 1.0, 3.0, 2.0], p[0.0, 0.0, 0.0, 0.0, 0.0, d2r(90)]), a , v)
release
movel(pose_trans(p[1.0, 4.5, 8.01, 1.0, 3.0, 2.0], p[0.0, 0.0, 0.0, 0.0, 0.0, d2r(90)]), a , v)

movel(p[0.0, 0.0, 0.01, 1.0, 3.0, 2.0], a, v)
movel(p[0.0, 0.0, 0.0, 1.0, 3.0, 2.0], a, v)
grip
movel(p[0.0, 0.0, 0.01, 1.0, 3.0, 2.0], a, v)
movel(pose_trans(p[1.0, 1.5, 8.01, 1.0, 3.0, 2.0], p[0.0, 0.0, 0.0, 0.0, 0.0, d2r(270)]), a , v)
movel(pose_trans(p[1.0, 1.5, 8, 1.0, 3.0, 2.0], p[0.0, 0.0, 0.0, 0.0, 0.0, d2r(270)]), a , v)
release
movel(pose_trans(p[1.0, 1.5, 8.01, 1.0, 3.0, 2.0], p[0.0, 0.0, 0.0, 0.0, 0.0, d2r(270)]), a , v)

